; generated by PrusaSlicer 2.2.0+ on 2020-05-21 at 00:26:45 UTC

; 

; external perimeters extrusion width = 0.45mm
; perimeters extrusion width = 0.45mm
; infill extrusion width = 0.45mm
; solid infill extrusion width = 0.45mm
; top infill extrusion width = 0.40mm
; first layer extrusion width = 0.42mm

M201 X500 Y500 Z100 E5000 ; sets maximum accelerations, mm/sec^2
M203 X500 Y500 Z10 E60 ; sets maximum feedrates, mm/sec
M204 P500 R1000 T500 ; sets acceleration (P, T) and retract acceleration (R), mm/sec^2
M205 X8.00 Y8.00 Z0.40 E5.00 ; sets the jerk limits, mm/sec
M205 S0 T0 ; sets the minimum extruding and travel feed rate, mm/sec
M107
G90 ; use absolute coordinates
M83 ; extruder relative mode
M104 S200 ; set extruder temp
M140 S70 ; set bed temp
M190 S70 ; wait for bed temp
M109 S200 ; wait for extruder temp
G28 ; home all
M420 S1
G1 Z2 F240
G1 X2 Y10 F3000
G1 Z0.28 F240
G92 E0.0
G1 Y190 E15.0 F1500.0 ; intro line
G1 X2.3 F5000
G1 Y10 E30 F1200.0 ; intro line
G92 E0.0
G21 ; set units to millimeters
G90 ; use absolute coordinates
M83 ; use relative distances for extrusion
; Filament gcode
;BEFORE_LAYER_CHANGE
;0.2


G1 E-2.50000 F3600.00000
G1 Z0.200 F9000.000
;AFTER_LAYER_CHANGE
;0.2
G1 Z0.400
G1 X48.828 Y117.605
G1 Z0.200
G1 E2.50000 F2400.00000
G1 F1200.000
G1 X49.389 Y116.315 E0.04412
G1 X49.813 Y115.725 E0.02278
G1 X50.322 Y115.200 E0.02293
G1 X50.886 Y114.764 E0.02234
G1 X51.500 Y114.417 E0.02210
G1 X52.840 Y113.997 E0.04404
G1 X53.664 Y113.931 E0.02593
G1 X186.370 Y113.931 E4.16088
G1 X187.125 Y113.991 E0.02376
G1 X187.897 Y114.176 E0.02487
G1 X188.628 Y114.480 E0.02481
G1 X189.281 Y114.880 E0.02404
G1 X189.893 Y115.403 E0.02522
G1 X190.394 Y115.990 E0.02420
G1 X190.813 Y116.676 E0.02520
G1 X191.107 Y117.390 E0.02422
G1 X191.307 Y118.271 E0.02832
G1 X193.675 Y136.335 E0.57124
G1 X193.691 Y137.299 E0.03023
G1 X193.531 Y138.214 E0.02911
G1 X193.199 Y139.096 E0.02955
G1 X192.705 Y139.903 E0.02966
G1 X192.038 Y140.629 E0.03091
G1 X191.292 Y141.180 E0.02908
G1 X190.464 Y141.581 E0.02884
G1 X189.529 Y141.832 E0.03035
G1 X157.645 Y145.999 E1.00822
G1 X82.402 Y146.001 E2.35920
G1 X50.165 Y141.772 E1.01941
G1 X49.456 Y141.550 E0.02331
G1 X48.801 Y141.235 E0.02279
G1 X48.208 Y140.835 E0.02241
G1 X47.664 Y140.339 E0.02310
G1 X47.200 Y139.771 E0.02298
G1 X46.818 Y139.129 E0.02342
G1 X46.536 Y138.438 E0.02341
G1 X46.361 Y137.723 E0.02308
G1 X46.294 Y136.985 E0.02322
G1 X46.333 Y136.270 E0.02244
G1 X48.821 Y117.665 E0.58856
G1 E-1.75000 F3600.00000
G1 F7200.000
G1 X49.389 Y116.315 E-0.69585
G1 X49.409 Y116.286 E-0.01665
G1 E-0.03750 F3600.00000
G1 Z0.400 F9000.000
G1 X189.434 Y135.040
G1 Z0.200
G1 E2.50000 F2400.00000
G1 F1200.000
G1 X189.065 Y132.223 E0.08909
G1 X179.346 Y133.498 E0.30733
G1 X179.947 Y138.099 E0.14550
G1 X179.948 Y138.401 E0.00945
G1 X179.893 Y138.712 E0.00992
G1 X179.812 Y138.938 E0.00753
G1 X179.694 Y139.158 E0.00783
G1 X179.546 Y139.357 E0.00777
G1 X179.370 Y139.530 E0.00773
G1 X179.176 Y139.673 E0.00755
G1 X178.970 Y139.782 E0.00731
G1 X178.746 Y139.863 E0.00748
G1 X178.514 Y139.910 E0.00740
G1 X178.196 Y139.920 E0.00998
G1 X177.854 Y139.865 E0.01086
G1 X177.570 Y139.758 E0.00951
G1 X177.270 Y139.570 E0.01110
G1 X177.054 Y139.365 E0.00935
G1 X176.858 Y139.087 E0.01066
G1 X176.731 Y138.807 E0.00963
G1 X176.651 Y138.470 E0.01086
G1 X176.641 Y138.167 E0.00950
G1 X176.700 Y137.818 E0.01112
G1 X176.807 Y137.539 E0.00934
G1 X176.988 Y137.252 E0.01066
G1 X177.199 Y137.028 E0.00964
G1 X177.480 Y136.825 E0.01087
G1 X177.755 Y136.700 E0.00949
G1 X179.025 Y136.409 E0.04085
G1 X178.655 Y133.588 E0.08919
G1 X168.935 Y134.863 E0.30736
G1 X169.535 Y139.449 E0.14502
G1 X169.537 Y139.769 E0.01002
G1 X169.482 Y140.079 E0.00987
G1 X169.402 Y140.305 E0.00752
G1 X169.284 Y140.525 E0.00782
G1 X169.135 Y140.725 E0.00783
G1 X168.972 Y140.887 E0.00720
G1 X168.764 Y141.040 E0.00810
G1 X168.560 Y141.149 E0.00725
G1 X168.335 Y141.230 E0.00749
G1 X168.104 Y141.277 E0.00740
G1 X167.786 Y141.287 E0.00998
G1 X167.444 Y141.232 E0.01087
G1 X167.299 Y141.186 E0.00478
G1 X167.160 Y141.125 E0.00473
G1 X166.860 Y140.936 E0.01112
G1 X166.742 Y140.836 E0.00485
G1 X166.643 Y140.732 E0.00450
G1 X166.447 Y140.454 E0.01066
G1 X166.321 Y140.174 E0.00964
G1 X166.241 Y139.837 E0.01087
G1 X166.231 Y139.534 E0.00949
G1 X166.287 Y139.203 E0.01052
G1 X166.399 Y138.901 E0.01012
G1 X166.555 Y138.646 E0.00937
G1 X166.790 Y138.393 E0.01082
G1 X167.069 Y138.191 E0.01081
G1 X167.345 Y138.067 E0.00949
G1 X168.615 Y137.775 E0.04084
G1 X168.245 Y134.954 E0.08922
G1 X158.515 Y136.229 E0.30767
G1 X159.118 Y140.850 E0.14610
G1 X159.116 Y141.163 E0.00983
G1 X159.044 Y141.507 E0.01100
G1 X158.956 Y141.727 E0.00742
G1 X158.824 Y141.950 E0.00815
G1 X158.636 Y142.175 E0.00918
G1 X158.445 Y142.338 E0.00788
G1 X158.236 Y142.468 E0.00771
G1 X157.981 Y142.576 E0.00869
G1 X157.732 Y142.637 E0.00803
G1 X157.514 Y142.657 E0.00688
G1 X157.176 Y142.631 E0.01062
G1 X156.881 Y142.550 E0.00961
G1 X156.577 Y142.401 E0.01061
G1 X156.348 Y142.226 E0.00903
G1 X156.127 Y141.976 E0.01045
G1 X155.970 Y141.712 E0.00962
G1 X155.864 Y141.419 E0.00978
G1 X155.814 Y141.113 E0.00972
G1 X155.821 Y140.808 E0.00956
G1 X155.890 Y140.484 E0.01040
G1 X156.004 Y140.219 E0.00904
G1 X156.197 Y139.937 E0.01072
G1 X156.417 Y139.719 E0.00971
G1 X156.674 Y139.546 E0.00972
G1 X156.958 Y139.424 E0.00969
G1 X158.195 Y139.146 E0.03976
G1 X157.824 Y136.320 E0.08936
G1 X142.906 Y138.279 E0.47175
G1 X142.422 Y138.364 E0.01543
G1 X141.972 Y138.483 E0.01460
G1 X141.564 Y138.628 E0.01355
G1 X141.160 Y138.814 E0.01397
G1 X140.735 Y139.069 E0.01553
G1 X140.441 Y139.294 E0.01161
G1 X140.146 Y139.575 E0.01278
G1 X139.774 Y140.065 E0.01927
G1 X139.644 Y140.197 E0.00582
G1 X139.479 Y140.326 E0.00658
G1 X139.231 Y140.471 E0.00899
G1 X138.915 Y140.603 E0.01074
G1 X138.597 Y140.693 E0.01034
G1 X138.255 Y140.750 E0.01088
G1 X137.837 Y140.774 E0.01312
G1 X102.156 Y140.774 E1.11876
G1 X101.835 Y140.760 E0.01008
G1 X101.517 Y140.716 E0.01005
G1 X101.196 Y140.639 E0.01036
G1 X100.880 Y140.523 E0.01055
G1 X100.675 Y140.422 E0.00718
G1 X100.488 Y140.304 E0.00692
G1 X100.332 Y140.176 E0.00631
G1 X100.203 Y140.038 E0.00595
G1 X99.894 Y139.619 E0.01631
G1 X99.592 Y139.322 E0.01327
G1 X99.304 Y139.096 E0.01147
G1 X98.875 Y138.833 E0.01580
G1 X98.465 Y138.640 E0.01420
G1 X98.078 Y138.498 E0.01294
G1 X97.594 Y138.367 E0.01570
G1 X97.094 Y138.279 E0.01593
G1 X82.176 Y136.320 E0.47177
G1 X81.800 Y139.180 E0.09044
G1 X82.922 Y139.388 E0.03576
G1 X83.061 Y139.429 E0.00456
G1 X83.355 Y139.563 E0.01011
G1 X83.623 Y139.753 E0.01031
G1 X83.825 Y139.963 E0.00913
G1 X84.004 Y140.237 E0.01026
G1 X84.117 Y140.514 E0.00939
G1 X84.178 Y140.797 E0.00906
G1 X84.186 Y141.116 E0.01001
G1 X84.140 Y141.404 E0.00916
G1 X84.036 Y141.700 E0.00982
G1 X83.880 Y141.966 E0.00966
G1 X83.657 Y142.221 E0.01062
G1 X83.429 Y142.397 E0.00902
G1 X83.131 Y142.546 E0.01046
G1 X82.836 Y142.629 E0.00962
G1 X82.516 Y142.658 E0.01006
G1 X82.280 Y142.639 E0.00742
G1 X82.030 Y142.579 E0.00806
G1 X81.752 Y142.462 E0.00946
G1 X81.562 Y142.344 E0.00702
G1 X81.372 Y142.183 E0.00780
G1 X81.184 Y141.962 E0.00910
G1 X81.050 Y141.739 E0.00815
G1 X80.961 Y141.521 E0.00741
G1 X80.885 Y141.174 E0.01112
G1 X80.883 Y140.837 E0.01058
G1 X81.485 Y136.229 E0.14569
G1 X71.755 Y134.954 E0.30767
G1 X71.380 Y137.813 E0.09042
G1 X72.501 Y138.021 E0.03575
G1 X72.641 Y138.062 E0.00456
G1 X72.935 Y138.196 E0.01012
G1 X73.203 Y138.386 E0.01030
G1 X73.404 Y138.596 E0.00913
G1 X73.583 Y138.870 E0.01027
G1 X73.697 Y139.147 E0.00939
G1 X73.758 Y139.430 E0.00906
G1 X73.766 Y139.749 E0.01001
G1 X73.720 Y140.037 E0.00916
G1 X73.615 Y140.333 E0.00983
G1 X73.460 Y140.599 E0.00967
G1 X73.237 Y140.854 E0.01061
G1 X73.008 Y141.031 E0.00909
G1 X72.725 Y141.173 E0.00991
G1 X72.412 Y141.263 E0.01022
G1 X72.112 Y141.291 E0.00945
G1 X71.856 Y141.272 E0.00805
G1 X71.616 Y141.216 E0.00772
G1 X71.401 Y141.130 E0.00727
G1 X71.135 Y140.971 E0.00970
G1 X70.952 Y140.816 E0.00753
G1 X70.764 Y140.595 E0.00909
G1 X70.630 Y140.372 E0.00815
G1 X70.541 Y140.154 E0.00741
G1 X70.465 Y139.807 E0.01111
G1 X70.463 Y139.470 E0.01058
G1 X71.064 Y134.863 E0.14568
G1 X61.345 Y133.588 E0.30736
G1 X60.974 Y136.415 E0.08939
G1 X62.203 Y136.688 E0.03946
G1 X62.483 Y136.806 E0.00953
G1 X62.742 Y136.977 E0.00973
G1 X62.965 Y137.194 E0.00976
G1 X63.143 Y137.448 E0.00972
G1 X63.267 Y137.721 E0.00940
G1 X63.346 Y138.040 E0.01030
G1 X63.361 Y138.185 E0.00457
G1 X63.360 Y138.335 E0.00471
G1 X63.312 Y138.666 E0.01048
G1 X63.227 Y138.918 E0.00833
G1 X63.085 Y139.181 E0.00939
G1 X62.892 Y139.422 E0.00968
G1 X62.666 Y139.615 E0.00932
G1 X62.414 Y139.764 E0.00918
G1 X62.127 Y139.869 E0.00958
G1 X61.813 Y139.921 E0.00998
G1 X61.564 Y139.918 E0.00780
G1 X61.260 Y139.864 E0.00967
G1 X61.029 Y139.781 E0.00770
G1 X60.786 Y139.647 E0.00870
G1 X60.585 Y139.490 E0.00802
G1 X60.391 Y139.278 E0.00899
G1 X60.250 Y139.063 E0.00808
G1 X60.137 Y138.812 E0.00861
G1 X60.063 Y138.508 E0.00983
G1 X60.050 Y138.162 E0.01086
G1 X60.653 Y133.498 E0.14745
G1 X50.935 Y132.223 E0.30729
G1 X50.563 Y135.062 E0.08978
G1 X51.737 Y135.301 E0.03757
G1 X51.964 Y135.383 E0.00756
G1 X52.183 Y135.500 E0.00778
G1 X52.371 Y135.638 E0.00731
G1 X52.553 Y135.819 E0.00805
G1 X52.675 Y135.980 E0.00634
G1 X52.791 Y136.186 E0.00739
G1 X52.882 Y136.418 E0.00782
G1 X52.951 Y136.808 E0.01242
G1 X52.950 Y137.001 E0.00605
G1 X52.887 Y137.363 E0.01154
G1 X52.820 Y137.550 E0.00621
G1 X52.715 Y137.755 E0.00724
G1 X52.609 Y137.911 E0.00591
G1 X52.441 Y138.096 E0.00783
G1 X52.258 Y138.248 E0.00747
G1 X52.059 Y138.370 E0.00732
G1 X51.836 Y138.466 E0.00760
G1 X51.597 Y138.529 E0.00776
G1 X51.348 Y138.556 E0.00783
G1 X51.098 Y138.545 E0.00785
G1 X50.872 Y138.502 E0.00723
G1 X50.626 Y138.416 E0.00817
G1 X50.417 Y138.306 E0.00741
G1 X50.228 Y138.168 E0.00733
G1 X50.054 Y137.999 E0.00761
G1 X49.904 Y137.802 E0.00775
G1 X49.784 Y137.582 E0.00788
G1 X49.701 Y137.358 E0.00747
G1 X49.657 Y137.159 E0.00641
G1 X49.637 Y136.925 E0.00734
G1 X49.653 Y136.649 E0.00869
G1 X52.028 Y118.595 E0.57094
G1 X52.108 Y118.326 E0.00880
G1 X52.212 Y118.109 E0.00752
G1 X52.351 Y117.903 E0.00780
G1 X52.520 Y117.721 E0.00778
G1 X52.728 Y117.556 E0.00833
G1 X52.924 Y117.442 E0.00712
G1 X53.165 Y117.348 E0.00812
G1 X53.399 Y117.293 E0.00753
G1 X53.568 Y117.276 E0.00533
G1 X53.936 Y117.298 E0.01157
G1 X54.287 Y117.400 E0.01146
G1 X54.564 Y117.548 E0.00983
G1 X54.847 Y117.783 E0.01155
G1 X55.064 Y118.063 E0.01110
G1 X55.218 Y118.390 E0.01132
G1 X55.300 Y118.754 E0.01171
G1 X55.309 Y118.923 E0.00531
G1 X55.276 Y119.257 E0.01051
G1 X55.210 Y119.494 E0.00772
G1 X55.087 Y119.758 E0.00914
G1 X54.903 Y120.018 E0.00999
G1 X54.757 Y120.168 E0.00654
G1 X54.605 Y120.289 E0.00608
G1 X54.439 Y120.392 E0.00614
G1 X54.227 Y120.487 E0.00728
G1 X53.849 Y120.579 E0.01221
G1 X53.623 Y120.591 E0.00708
G1 X52.472 Y120.508 E0.03621
G1 X52.096 Y123.370 E0.09050
G1 X61.815 Y124.644 E0.30733
G1 X62.419 Y120.053 E0.14521
G1 X62.496 Y119.753 E0.00971
G1 X62.606 Y119.505 E0.00848
G1 X62.730 Y119.311 E0.00723
G1 X62.884 Y119.133 E0.00738
G1 X63.077 Y118.966 E0.00800
G1 X63.247 Y118.856 E0.00635
G1 X63.457 Y118.756 E0.00728
G1 X63.686 Y118.686 E0.00752
G1 X63.917 Y118.649 E0.00733
G1 X64.169 Y118.646 E0.00789
G1 X64.346 Y118.667 E0.00559
G1 X64.492 Y118.700 E0.00473
G1 X64.814 Y118.827 E0.01083
G1 X65.103 Y119.012 E0.01078
G1 X65.338 Y119.243 E0.01032
G1 X65.443 Y119.386 E0.00556
G1 X65.516 Y119.507 E0.00444
G1 X65.644 Y119.818 E0.01054
G1 X65.711 Y120.156 E0.01081
G1 X65.708 Y120.487 E0.01035
G1 X65.638 Y120.812 E0.01043
G1 X65.513 Y121.100 E0.00985
G1 X65.306 Y121.394 E0.01127
G1 X65.091 Y121.599 E0.00932
G1 X64.799 Y121.782 E0.01081
G1 X64.477 Y121.905 E0.01081
G1 X64.178 Y121.955 E0.00950
G1 X62.876 Y121.909 E0.04084
G1 X62.506 Y124.735 E0.08937
G1 X72.225 Y126.010 E0.30736
G1 X72.829 Y121.419 E0.14516
G1 X72.906 Y121.119 E0.00971
G1 X73.016 Y120.872 E0.00849
G1 X73.140 Y120.678 E0.00723
G1 X73.297 Y120.495 E0.00755
G1 X73.449 Y120.361 E0.00634
G1 X73.662 Y120.220 E0.00801
G1 X73.867 Y120.123 E0.00711
G1 X74.096 Y120.052 E0.00753
G1 X74.327 Y120.016 E0.00731
G1 X74.578 Y120.013 E0.00789
G1 X74.756 Y120.033 E0.00560
G1 X74.903 Y120.067 E0.00473
G1 X75.224 Y120.194 E0.01084
G1 X75.513 Y120.379 E0.01077
G1 X75.748 Y120.610 E0.01032
G1 X75.853 Y120.752 E0.00555
G1 X75.926 Y120.874 E0.00445
G1 X76.054 Y121.185 E0.01054
G1 X76.122 Y121.523 E0.01081
G1 X76.119 Y121.853 E0.01035
G1 X76.048 Y122.178 E0.01043
G1 X75.923 Y122.466 E0.00984
G1 X75.716 Y122.761 E0.01128
G1 X75.615 Y122.868 E0.00461
G1 X75.501 Y122.966 E0.00471
G1 X75.208 Y123.150 E0.01087
G1 X74.921 Y123.261 E0.00962
G1 X74.582 Y123.322 E0.01081
G1 X74.436 Y123.326 E0.00457
G1 X73.291 Y123.240 E0.03600
G1 X72.916 Y126.100 E0.09045
G1 X82.646 Y127.376 E0.30768
G1 X83.250 Y122.786 E0.14516
G1 X83.327 Y122.484 E0.00977
G1 X83.429 Y122.251 E0.00798
G1 X83.555 Y122.052 E0.00739
G1 X83.686 Y121.894 E0.00644
G1 X83.862 Y121.734 E0.00746
G1 X84.070 Y121.594 E0.00785
G1 X84.289 Y121.489 E0.00760
G1 X84.516 Y121.419 E0.00747
G1 X84.749 Y121.382 E0.00738
G1 X84.965 Y121.379 E0.00677
G1 X85.295 Y121.429 E0.01047
G1 X85.621 Y121.546 E0.01084
G1 X85.754 Y121.618 E0.00475
G1 X85.880 Y121.704 E0.00481
G1 X86.141 Y121.945 E0.01113
G1 X86.241 Y122.071 E0.00506
G1 X86.327 Y122.206 E0.00500
G1 X86.461 Y122.501 E0.01018
G1 X86.538 Y122.841 E0.01092
G1 X86.543 Y123.176 E0.01050
G1 X86.482 Y123.499 E0.01031
G1 X86.346 Y123.827 E0.01112
G1 X86.180 Y124.076 E0.00938
G1 X85.942 Y124.313 E0.01054
G1 X85.656 Y124.505 E0.01081
G1 X85.519 Y124.570 E0.00475
G1 X85.360 Y124.624 E0.00528
G1 X85.002 Y124.689 E0.01138
G1 X84.857 Y124.693 E0.00457
G1 X83.712 Y124.607 E0.03601
G1 X83.337 Y127.467 E0.09044
G1 X96.856 Y129.240 E0.42751
G1 X97.297 Y129.266 E0.01385
G1 X97.660 Y129.244 E0.01143
G1 X98.023 Y129.185 E0.01152
G1 X98.653 Y128.983 E0.02073
G1 X99.225 Y128.665 E0.02052
G1 X100.073 Y128.020 E0.03342
G1 X100.275 Y127.895 E0.00745
G1 X100.602 Y127.769 E0.01099
G1 X100.929 Y127.721 E0.01035
G1 X139.058 Y127.720 E1.19550
G1 X139.395 Y127.768 E0.01070
G1 X139.674 Y127.870 E0.00931
G1 X139.919 Y128.014 E0.00888
G1 X140.795 Y128.678 E0.03448
G1 X141.342 Y128.980 E0.01960
G1 X141.969 Y129.183 E0.02066
G1 X142.333 Y129.243 E0.01159
G1 X142.712 Y129.266 E0.01190
G1 X143.145 Y129.240 E0.01359
G1 X156.663 Y127.467 E0.42749
G1 X156.288 Y124.605 E0.09051
G1 X155.151 Y124.693 E0.03576
G1 X155.008 Y124.689 E0.00451
G1 X154.672 Y124.631 E0.01067
G1 X154.385 Y124.523 E0.00963
G1 X154.107 Y124.352 E0.01024
G1 X153.866 Y124.130 E0.01026
G1 X153.672 Y123.862 E0.01036
G1 X153.542 Y123.573 E0.00996
G1 X153.467 Y123.241 E0.01066
G1 X153.457 Y122.934 E0.00964
G1 X153.512 Y122.592 E0.01087
G1 X153.619 Y122.308 E0.00950
G1 X153.807 Y122.008 E0.01111
G1 X154.012 Y121.792 E0.00935
G1 X154.290 Y121.596 E0.01065
G1 X154.570 Y121.469 E0.00964
G1 X154.898 Y121.391 E0.01059
G1 X155.120 Y121.377 E0.00695
G1 X155.363 Y121.396 E0.00766
G1 X155.594 Y121.449 E0.00741
G1 X155.827 Y121.540 E0.00786
G1 X156.023 Y121.651 E0.00707
G1 X156.220 Y121.804 E0.00781
G1 X156.393 Y121.984 E0.00783
G1 X156.530 Y122.181 E0.00751
G1 X156.666 Y122.469 E0.00999
G1 X156.750 Y122.785 E0.01025
G1 X157.354 Y127.376 E0.14521
G1 X167.084 Y126.100 E0.30768
G1 X166.708 Y123.238 E0.09053
G1 X165.571 Y123.326 E0.03575
G1 X165.428 Y123.322 E0.00451
G1 X165.093 Y123.265 E0.01066
G1 X164.805 Y123.156 E0.00964
G1 X164.510 Y122.974 E0.01087
G1 X164.394 Y122.876 E0.00476
G1 X164.289 Y122.767 E0.00474
G1 X164.084 Y122.478 E0.01113
G1 X163.962 Y122.206 E0.00933
G1 X163.887 Y121.874 E0.01067
G1 X163.877 Y121.567 E0.00964
G1 X163.932 Y121.225 E0.01087
G1 X164.039 Y120.942 E0.00950
G1 X164.228 Y120.641 E0.01111
G1 X164.432 Y120.425 E0.00934
G1 X164.710 Y120.229 E0.01067
G1 X164.990 Y120.102 E0.00964
G1 X165.319 Y120.024 E0.01058
G1 X165.540 Y120.010 E0.00695
G1 X165.783 Y120.029 E0.00765
G1 X166.014 Y120.082 E0.00742
G1 X166.248 Y120.173 E0.00788
G1 X166.444 Y120.284 E0.00706
G1 X166.640 Y120.437 E0.00780
G1 X166.813 Y120.617 E0.00783
G1 X166.950 Y120.814 E0.00752
