; generated by PrusaSlicer 2.2.0+ on 2020-05-21 at 00:26:20 UTC

; 

; external perimeters extrusion width = 0.45mm
; perimeters extrusion width = 0.45mm
; infill extrusion width = 0.45mm
; solid infill extrusion width = 0.45mm
; top infill extrusion width = 0.40mm
; first layer extrusion width = 0.42mm

M201 X500 Y500 Z100 E5000 ; sets maximum accelerations, mm/sec^2
M203 X500 Y500 Z10 E60 ; sets maximum feedrates, mm/sec
M204 P500 R1000 T500 ; sets acceleration (P, T) and retract acceleration (R), mm/sec^2
M205 X8.00 Y8.00 Z0.40 E5.00 ; sets the jerk limits, mm/sec
M205 S0 T0 ; sets the minimum extruding and travel feed rate, mm/sec
M107
G90 ; use absolute coordinates
M83 ; extruder relative mode
M104 S200 ; set extruder temp
M140 S70 ; set bed temp
M190 S70 ; wait for bed temp
M109 S200 ; wait for extruder temp
G28 ; home all
M420 S1
G1 Z2 F240
G1 X2 Y10 F3000
G1 Z0.28 F240
G92 E0.0
G1 Y190 E15.0 F1500.0 ; intro line
G1 X2.3 F5000
G1 Y10 E30 F1200.0 ; intro line
G92 E0.0
G21 ; set units to millimeters
G90 ; use absolute coordinates
M83 ; use relative distances for extrusion
; Filament gcode
;BEFORE_LAYER_CHANGE
;0.2


G1 E-2.50000 F3600.00000
G1 Z0.200 F9000.000
;AFTER_LAYER_CHANGE
;0.2
G1 Z0.400
G1 X51.329 Y90.502
G1 Z0.200
G1 E2.50000 F2400.00000
G1 F1200.000
G1 X52.447 Y90.078 E0.03748
G1 X53.652 Y89.931 E0.03808
G1 X186.370 Y89.931 E4.16126
G1 X187.130 Y89.992 E0.02391
G1 X187.908 Y90.180 E0.02508
G1 X188.641 Y90.487 E0.02493
G1 X189.321 Y90.909 E0.02509
G1 X189.904 Y91.414 E0.02417
G1 X190.400 Y91.999 E0.02408
G1 X190.814 Y92.679 E0.02496
G1 X191.108 Y93.394 E0.02422
G1 X191.307 Y94.275 E0.02832
G1 X193.697 Y112.591 E0.57916
G1 X193.701 Y161.139 E1.52220
G1 X193.475 Y162.404 E0.04027
G1 X192.926 Y163.583 E0.04081
G1 X192.090 Y164.581 E0.04081
G1 X191.044 Y165.320 E0.04016
G1 X190.240 Y165.659 E0.02734
G1 X189.414 Y165.850 E0.02658
G1 X157.703 Y169.997 E1.00275
G1 X82.485 Y170.002 E2.35840
G1 X50.357 Y165.812 E1.01590
G1 X49.280 Y165.477 E0.03535
G1 X48.298 Y164.904 E0.03566
G1 X47.489 Y164.144 E0.03480
G1 X46.864 Y163.220 E0.03496
G1 X46.451 Y162.147 E0.03606
G1 X46.293 Y160.966 E0.03735
G1 X46.302 Y112.604 E1.51636
G1 X48.770 Y93.838 E0.59346
G1 X49.119 Y92.816 E0.03385
G1 X49.689 Y91.880 E0.03439
G1 X50.420 Y91.115 E0.03317
G1 X51.279 Y90.536 E0.03249
G1 E-1.75000 F3600.00000
G1 F7200.000
G1 X52.447 Y90.078 E-0.59565
G1 X52.691 Y90.048 E-0.11685
G1 E-0.03750 F3600.00000
G1 Z0.400 F9000.000
G1 X189.434 Y111.040
G1 Z0.200
G1 E2.50000 F2400.00000
G1 F1200.000
G1 X189.065 Y108.223 E0.08909
G1 X179.346 Y109.498 E0.30733
G1 X179.947 Y114.099 E0.14550
G1 X179.948 Y114.401 E0.00945
G1 X179.893 Y114.712 E0.00992
G1 X179.812 Y114.938 E0.00753
G1 X179.694 Y115.158 E0.00783
G1 X179.546 Y115.357 E0.00777
G1 X179.370 Y115.530 E0.00773
G1 X179.176 Y115.673 E0.00755
G1 X178.970 Y115.782 E0.00731
G1 X178.746 Y115.863 E0.00748
G1 X178.514 Y115.910 E0.00740
G1 X178.196 Y115.920 E0.00998
G1 X177.854 Y115.865 E0.01086
G1 X177.570 Y115.758 E0.00951
G1 X177.270 Y115.570 E0.01110
G1 X177.054 Y115.365 E0.00935
G1 X176.858 Y115.087 E0.01066
G1 X176.731 Y114.807 E0.00963
G1 X176.651 Y114.470 E0.01086
G1 X176.641 Y114.167 E0.00950
G1 X176.700 Y113.818 E0.01112
G1 X176.807 Y113.539 E0.00934
G1 X176.988 Y113.252 E0.01066
G1 X177.199 Y113.028 E0.00964
G1 X177.480 Y112.825 E0.01087
G1 X177.755 Y112.700 E0.00949
G1 X179.025 Y112.409 E0.04085
G1 X178.655 Y109.588 E0.08919
G1 X168.935 Y110.863 E0.30736
G1 X169.535 Y115.449 E0.14502
G1 X169.537 Y115.769 E0.01002
G1 X169.482 Y116.079 E0.00987
G1 X169.402 Y116.305 E0.00752
G1 X169.284 Y116.525 E0.00782
G1 X169.135 Y116.725 E0.00783
G1 X168.972 Y116.887 E0.00720
G1 X168.764 Y117.040 E0.00810
G1 X168.560 Y117.149 E0.00725
G1 X168.335 Y117.230 E0.00749
G1 X168.104 Y117.277 E0.00740
G1 X167.786 Y117.287 E0.00998
G1 X167.444 Y117.232 E0.01087
G1 X167.299 Y117.186 E0.00478
G1 X167.160 Y117.125 E0.00473
G1 X166.860 Y116.936 E0.01112
G1 X166.742 Y116.836 E0.00485
G1 X166.643 Y116.732 E0.00450
G1 X166.447 Y116.454 E0.01066
G1 X166.321 Y116.174 E0.00964
G1 X166.241 Y115.837 E0.01087
G1 X166.231 Y115.534 E0.00949
G1 X166.287 Y115.203 E0.01052
G1 X166.399 Y114.901 E0.01012
G1 X166.555 Y114.646 E0.00937
G1 X166.790 Y114.393 E0.01082
G1 X167.069 Y114.191 E0.01081
G1 X167.345 Y114.067 E0.00949
G1 X168.615 Y113.775 E0.04084
G1 X168.245 Y110.954 E0.08922
G1 X158.515 Y112.229 E0.30767
G1 X159.118 Y116.850 E0.14610
G1 X159.116 Y117.163 E0.00983
G1 X159.044 Y117.507 E0.01100
G1 X158.956 Y117.727 E0.00742
G1 X158.824 Y117.950 E0.00815
G1 X158.636 Y118.175 E0.00918
G1 X158.445 Y118.338 E0.00788
G1 X158.236 Y118.468 E0.00771
G1 X157.981 Y118.576 E0.00869
G1 X157.732 Y118.637 E0.00803
G1 X157.514 Y118.657 E0.00688
G1 X157.176 Y118.631 E0.01062
G1 X156.881 Y118.550 E0.00961
G1 X156.577 Y118.401 E0.01061
G1 X156.348 Y118.226 E0.00903
G1 X156.127 Y117.976 E0.01045
G1 X155.970 Y117.712 E0.00962
G1 X155.864 Y117.419 E0.00978
G1 X155.814 Y117.113 E0.00972
G1 X155.821 Y116.808 E0.00956
G1 X155.890 Y116.484 E0.01040
G1 X156.004 Y116.219 E0.00904
G1 X156.197 Y115.937 E0.01072
G1 X156.417 Y115.719 E0.00971
G1 X156.674 Y115.546 E0.00972
G1 X156.958 Y115.424 E0.00969
G1 X158.195 Y115.146 E0.03976
G1 X157.824 Y112.320 E0.08936
G1 X142.906 Y114.279 E0.47175
G1 X142.422 Y114.364 E0.01543
G1 X141.972 Y114.483 E0.01460
G1 X141.564 Y114.628 E0.01355
G1 X141.160 Y114.814 E0.01397
G1 X140.735 Y115.069 E0.01553
G1 X140.441 Y115.294 E0.01161
G1 X140.146 Y115.575 E0.01278
G1 X139.774 Y116.065 E0.01927
G1 X139.644 Y116.197 E0.00582
G1 X139.479 Y116.326 E0.00658
G1 X139.231 Y116.471 E0.00899
G1 X138.915 Y116.603 E0.01074
G1 X138.597 Y116.693 E0.01034
G1 X138.255 Y116.750 E0.01088
G1 X137.837 Y116.774 E0.01312
G1 X102.156 Y116.774 E1.11876
G1 X101.835 Y116.760 E0.01008
G1 X101.517 Y116.716 E0.01005
G1 X101.196 Y116.639 E0.01036
G1 X100.880 Y116.523 E0.01055
G1 X100.675 Y116.422 E0.00718
G1 X100.488 Y116.304 E0.00692
G1 X100.332 Y116.176 E0.00631
G1 X100.203 Y116.038 E0.00595
G1 X99.894 Y115.619 E0.01631
G1 X99.592 Y115.322 E0.01327
G1 X99.304 Y115.096 E0.01147
G1 X98.875 Y114.833 E0.01580
G1 X98.465 Y114.640 E0.01420
G1 X98.078 Y114.498 E0.01294
G1 X97.594 Y114.367 E0.01570
G1 X97.094 Y114.279 E0.01593
G1 X82.176 Y112.320 E0.47177
G1 X81.800 Y115.180 E0.09044
G1 X82.922 Y115.388 E0.03576
G1 X83.061 Y115.429 E0.00456
G1 X83.355 Y115.563 E0.01011
G1 X83.623 Y115.753 E0.01031
G1 X83.825 Y115.963 E0.00913
G1 X84.004 Y116.237 E0.01026
G1 X84.117 Y116.514 E0.00939
G1 X84.178 Y116.797 E0.00906
G1 X84.186 Y117.116 E0.01001
G1 X84.140 Y117.404 E0.00916
G1 X84.036 Y117.700 E0.00982
G1 X83.880 Y117.966 E0.00966
G1 X83.657 Y118.221 E0.01062
G1 X83.429 Y118.397 E0.00902
G1 X83.131 Y118.546 E0.01046
G1 X82.836 Y118.629 E0.00962
G1 X82.516 Y118.658 E0.01006
G1 X82.280 Y118.639 E0.00742
G1 X82.030 Y118.579 E0.00806
G1 X81.752 Y118.462 E0.00946
G1 X81.562 Y118.344 E0.00702
G1 X81.372 Y118.183 E0.00780
G1 X81.184 Y117.962 E0.00910
G1 X81.050 Y117.739 E0.00815
G1 X80.961 Y117.521 E0.00741
G1 X80.885 Y117.174 E0.01112
G1 X80.883 Y116.837 E0.01058
G1 X81.485 Y112.229 E0.14569
G1 X71.755 Y110.954 E0.30767
G1 X71.380 Y113.813 E0.09042
G1 X72.501 Y114.021 E0.03575
G1 X72.641 Y114.062 E0.00456
G1 X72.935 Y114.196 E0.01012
G1 X73.203 Y114.386 E0.01030
G1 X73.404 Y114.596 E0.00913
G1 X73.583 Y114.870 E0.01027
G1 X73.697 Y115.147 E0.00939
G1 X73.758 Y115.430 E0.00906
G1 X73.766 Y115.749 E0.01001
G1 X73.720 Y116.037 E0.00916
G1 X73.615 Y116.333 E0.00983
G1 X73.460 Y116.599 E0.00967
G1 X73.237 Y116.854 E0.01061
G1 X73.008 Y117.031 E0.00909
G1 X72.725 Y117.173 E0.00991
G1 X72.412 Y117.263 E0.01022
G1 X72.112 Y117.291 E0.00945
G1 X71.856 Y117.272 E0.00805
G1 X71.616 Y117.216 E0.00772
G1 X71.401 Y117.130 E0.00727
G1 X71.135 Y116.971 E0.00970
G1 X70.952 Y116.816 E0.00753
G1 X70.764 Y116.595 E0.00909
G1 X70.630 Y116.372 E0.00815
G1 X70.541 Y116.154 E0.00741
G1 X70.465 Y115.807 E0.01111
G1 X70.463 Y115.470 E0.01058
G1 X71.064 Y110.863 E0.14568
G1 X61.345 Y109.588 E0.30736
G1 X60.974 Y112.415 E0.08939
G1 X62.203 Y112.688 E0.03946
G1 X62.483 Y112.806 E0.00953
G1 X62.742 Y112.977 E0.00973
G1 X62.965 Y113.194 E0.00976
G1 X63.143 Y113.448 E0.00972
G1 X63.267 Y113.721 E0.00940
G1 X63.346 Y114.040 E0.01030
G1 X63.361 Y114.185 E0.00457
G1 X63.360 Y114.335 E0.00471
G1 X63.312 Y114.666 E0.01048
G1 X63.227 Y114.918 E0.00833
G1 X63.085 Y115.181 E0.00939
G1 X62.892 Y115.422 E0.00968
G1 X62.666 Y115.615 E0.00932
G1 X62.414 Y115.764 E0.00918
G1 X62.127 Y115.869 E0.00958
G1 X61.813 Y115.921 E0.00998
G1 X61.564 Y115.918 E0.00780
G1 X61.260 Y115.864 E0.00967
G1 X61.029 Y115.781 E0.00770
G1 X60.786 Y115.647 E0.00870
G1 X60.585 Y115.490 E0.00802
G1 X60.391 Y115.278 E0.00899
G1 X60.250 Y115.063 E0.00808
G1 X60.137 Y114.812 E0.00861
G1 X60.063 Y114.508 E0.00983
G1 X60.050 Y114.162 E0.01086
G1 X60.653 Y109.498 E0.14745
G1 X50.935 Y108.223 E0.30729
G1 X50.563 Y111.062 E0.08978
G1 X51.737 Y111.301 E0.03757
G1 X51.964 Y111.383 E0.00756
G1 X52.183 Y111.500 E0.00778
G1 X52.371 Y111.638 E0.00731
G1 X52.553 Y111.819 E0.00805
G1 X52.675 Y111.980 E0.00634
G1 X52.791 Y112.186 E0.00739
G1 X52.882 Y112.418 E0.00782
G1 X52.951 Y112.808 E0.01242
G1 X52.950 Y113.001 E0.00605
G1 X52.887 Y113.363 E0.01154
G1 X52.820 Y113.550 E0.00621
G1 X52.715 Y113.755 E0.00724
G1 X52.609 Y113.911 E0.00591
G1 X52.441 Y114.096 E0.00783
G1 X52.258 Y114.248 E0.00747
G1 X52.059 Y114.370 E0.00732
G1 X51.836 Y114.466 E0.00760
G1 X51.597 Y114.529 E0.00776
G1 X51.348 Y114.556 E0.00783
G1 X51.098 Y114.545 E0.00785
G1 X50.872 Y114.502 E0.00723
G1 X50.626 Y114.416 E0.00817
G1 X50.417 Y114.306 E0.00741
G1 X50.228 Y114.168 E0.00733
G1 X50.054 Y113.999 E0.00761
G1 X49.904 Y113.802 E0.00775
G1 X49.784 Y113.582 E0.00788
G1 X49.701 Y113.358 E0.00747
G1 X49.657 Y113.159 E0.00641
G1 X49.637 Y112.925 E0.00734
G1 X49.653 Y112.649 E0.00869
G1 X52.028 Y94.595 E0.57094
G1 X52.108 Y94.326 E0.00880
G1 X52.212 Y94.109 E0.00752
G1 X52.351 Y93.903 E0.00780
G1 X52.520 Y93.721 E0.00778
G1 X52.728 Y93.556 E0.00833
G1 X52.924 Y93.442 E0.00712
G1 X53.165 Y93.348 E0.00812
G1 X53.399 Y93.293 E0.00753
G1 X53.568 Y93.276 E0.00533
G1 X53.936 Y93.298 E0.01157
G1 X54.287 Y93.400 E0.01146
G1 X54.564 Y93.548 E0.00983
G1 X54.847 Y93.783 E0.01155
G1 X55.064 Y94.063 E0.01110
G1 X55.218 Y94.390 E0.01132
G1 X55.300 Y94.754 E0.01171
G1 X55.309 Y94.923 E0.00531
G1 X55.276 Y95.257 E0.01051
G1 X55.210 Y95.494 E0.00772
G1 X55.087 Y95.758 E0.00914
G1 X54.903 Y96.018 E0.00999
G1 X54.757 Y96.168 E0.00654
G1 X54.605 Y96.289 E0.00608
G1 X54.439 Y96.392 E0.00614
G1 X54.227 Y96.487 E0.00728
G1 X53.849 Y96.579 E0.01221
G1 X53.623 Y96.591 E0.00708
G1 X52.472 Y96.508 E0.03621
G1 X52.096 Y99.370 E0.09050
G1 X61.815 Y100.644 E0.30733
G1 X62.419 Y96.053 E0.14521
G1 X62.496 Y95.753 E0.00971
G1 X62.606 Y95.505 E0.00848
G1 X62.730 Y95.311 E0.00723
G1 X62.884 Y95.133 E0.00738
G1 X63.077 Y94.966 E0.00800
G1 X63.247 Y94.856 E0.00635
G1 X63.457 Y94.756 E0.00728
G1 X63.686 Y94.686 E0.00752
G1 X63.917 Y94.649 E0.00733
G1 X64.169 Y94.646 E0.00789
G1 X64.346 Y94.667 E0.00559
G1 X64.492 Y94.700 E0.00473
G1 X64.814 Y94.827 E0.01083
G1 X65.103 Y95.012 E0.01078
G1 X65.338 Y95.243 E0.01032
G1 X65.443 Y95.386 E0.00556
G1 X65.516 Y95.507 E0.00444
G1 X65.644 Y95.818 E0.01054
G1 X65.711 Y96.156 E0.01081
G1 X65.708 Y96.487 E0.01035
G1 X65.638 Y96.812 E0.01043
G1 X65.513 Y97.100 E0.00985
G1 X65.306 Y97.394 E0.01127
G1 X65.091 Y97.599 E0.00932
G1 X64.799 Y97.782 E0.01081
G1 X64.477 Y97.905 E0.01081
G1 X64.178 Y97.955 E0.00950
G1 X62.876 Y97.909 E0.04084
G1 X62.506 Y100.735 E0.08937
G1 X72.225 Y102.010 E0.30736
G1 X72.829 Y97.419 E0.14516
G1 X72.906 Y97.119 E0.00971
G1 X73.016 Y96.872 E0.00849
G1 X73.140 Y96.678 E0.00723
G1 X73.297 Y96.495 E0.00755
G1 X73.449 Y96.361 E0.00634
G1 X73.662 Y96.220 E0.00801
G1 X73.867 Y96.123 E0.00711
G1 X74.096 Y96.052 E0.00753
G1 X74.327 Y96.016 E0.00731
G1 X74.578 Y96.013 E0.00789
G1 X74.756 Y96.033 E0.00560
G1 X74.903 Y96.067 E0.00473
G1 X75.224 Y96.194 E0.01084
G1 X75.513 Y96.379 E0.01077
G1 X75.748 Y96.610 E0.01032
G1 X75.853 Y96.752 E0.00555
G1 X75.926 Y96.874 E0.00445
G1 X76.054 Y97.185 E0.01054
G1 X76.122 Y97.523 E0.01081
G1 X76.119 Y97.853 E0.01035
G1 X76.048 Y98.178 E0.01043
G1 X75.923 Y98.466 E0.00984
G1 X75.716 Y98.761 E0.01128
G1 X75.615 Y98.868 E0.00461
G1 X75.501 Y98.966 E0.00471
G1 X75.208 Y99.150 E0.01087
G1 X74.921 Y99.261 E0.00962
G1 X74.582 Y99.322 E0.01081
G1 X74.436 Y99.326 E0.00457
G1 X73.291 Y99.240 E0.03600
G1 X72.916 Y102.100 E0.09045
G1 X82.646 Y103.376 E0.30768
G1 X83.250 Y98.786 E0.14516
G1 X83.327 Y98.484 E0.00977
G1 X83.429 Y98.251 E0.00798
G1 X83.555 Y98.052 E0.00739
G1 X83.686 Y97.894 E0.00644
G1 X83.862 Y97.734 E0.00746
G1 X84.070 Y97.594 E0.00785
G1 X84.289 Y97.489 E0.00760
G1 X84.516 Y97.419 E0.00747
G1 X84.749 Y97.382 E0.00738
G1 X84.965 Y97.379 E0.00677
G1 X85.295 Y97.429 E0.01047
G1 X85.621 Y97.546 E0.01084
G1 X85.754 Y97.618 E0.00475
G1 X85.880 Y97.704 E0.00481
G1 X86.141 Y97.945 E0.01113
G1 X86.241 Y98.071 E0.00506
G1 X86.327 Y98.206 E0.00500
G1 X86.461 Y98.501 E0.01018
G1 X86.538 Y98.841 E0.01092
G1 X86.543 Y99.176 E0.01050
G1 X86.482 Y99.499 E0.01031
G1 X86.346 Y99.827 E0.01112
G1 X86.180 Y100.076 E0.00938
G1 X85.942 Y100.313 E0.01054
G1 X85.656 Y100.505 E0.01081
G1 X85.519 Y100.570 E0.00475
G1 X85.360 Y100.624 E0.00528
G1 X85.002 Y100.689 E0.01138
G1 X84.857 Y100.693 E0.00457
G1 X83.712 Y100.607 E0.03601
G1 X83.337 Y103.467 E0.09044
G1 X96.856 Y105.240 E0.42751
G1 X97.297 Y105.266 E0.01385
G1 X97.660 Y105.244 E0.01143
G1 X98.023 Y105.185 E0.01152
G1 X98.653 Y104.983 E0.02073
G1 X99.225 Y104.665 E0.02052
G1 X100.073 Y104.020 E0.03342
G1 X100.275 Y103.895 E0.00745
G1 X100.602 Y103.769 E0.01099
G1 X100.929 Y103.721 E0.01035
G1 X139.058 Y103.720 E1.19550
G1 X139.395 Y103.768 E0.01070
G1 X139.674 Y103.870 E0.00931
G1 X139.919 Y104.014 E0.00888
G1 X140.795 Y104.678 E0.03448
G1 X141.342 Y104.980 E0.01960
G1 X141.969 Y105.183 E0.02066
G1 X142.333 Y105.243 E0.01159
G1 X142.712 Y105.266 E0.01190
G1 X143.145 Y105.240 E0.01359
G1 X156.663 Y103.467 E0.42749
G1 X156.288 Y100.605 E0.09051
G1 X155.151 Y100.693 E0.03576
G1 X155.008 Y100.689 E0.00451
G1 X154.672 Y100.631 E0.01067
G1 X154.385 Y100.523 E0.00963
G1 X154.107 Y100.352 E0.01024
G1 X153.866 Y100.130 E0.01026
G1 X153.672 Y99.862 E0.01036
G1 X153.542 Y99.573 E0.00996
G1 X153.467 Y99.241 E0.01066
G1 X153.457 Y98.934 E0.00964
G1 X153.512 Y98.592 E0.01087
G1 X153.619 Y98.308 E0.00950
G1 X153.807 Y98.008 E0.01111
G1 X154.012 Y97.792 E0.00935
G1 X154.290 Y97.596 E0.01065
G1 X154.570 Y97.469 E0.00964
G1 X154.898 Y97.391 E0.01059
G1 X155.120 Y97.377 E0.00695
G1 X155.363 Y97.396 E0.00766
G1 X155.594 Y97.449 E0.00741
G1 X155.827 Y97.540 E0.00786
G1 X156.023 Y97.651 E0.00707
G1 X156.220 Y97.804 E0.00781
G1 X156.393 Y97.984 E0.00783
G1 X156.530 Y98.181 E0.00751
G1 X156.666 Y98.469 E0.00999
G1 X156.750 Y98.785 E0.01025
G1 X157.354 Y103.376 E0.14521
G1 X167.084 Y102.100 E0.30768
G1 X166.708 Y99.238 E0.09053
G1 X165.571 Y99.326 E0.03575
G1 X165.428 Y99.322 E0.00451
G1 X165.093 Y99.265 E0.01066
G1 X164.805 Y99.156 E0.00964
G1 X164.510 Y98.974 E0.01087
G1 X164.394 Y98.876 E0.00476
G1 X164.289 Y98.767 E0.00474
G1 X164.084 Y98.478 E0.01113
G1 X163.962 Y98.206 E0.00933
G1 X163.887 Y97.874 E0.01067
G1 X163.877 Y97.567 E0.00964
G1 X163.932 Y97.225 E0.01087
G1 X164.039 Y96.942 E0.00950
G1 X164.228 Y96.641 E0.01111
G1 X164.432 Y96.425 E0.00934
G1 X164.710 Y96.229 E0.01067
G1 X164.990 Y96.102 E0.00964
G1 X165.319 Y96.024 E0.01058
G1 X165.540 Y96.010 E0.00695
G1 X165.783 Y96.029 E0.00765
G1 X166.014 Y96.082 E0.00742
G1 X166.248 Y96.173 E0.00788
G1 X166.444 Y96.284 E0.00706
G1 X166.640 Y96.437 E0.00780
G1 X166.813 Y96.617 E0.00783
G1 X166.950 Y96.814 E0.00752
G1 X167.087 Y97.102 E0.00999
G1 X167.170 Y97.418 E0.01026
G1 X167.775 Y102.010 E0.14522
G1 X177.494 Y100.735 E0.30737
G1 X177.119 Y97.871 E0.09056
G1 X175.982 Y97.959 E0.03575
G1 X175.838 Y97.956 E0.00451
G1 X175.503 Y97.898 E0.01066
G1 X175.215 Y97.789 E0.00964
G1 X174.920 Y97.608 E0.01087
G1 X174.804 Y97.510 E0.00477
G1 X174.699 Y97.400 E0.00474
