; generated by PrusaSlicer 2.2.0+ on 2020-05-21 at 00:25:57 UTC

; 

; external perimeters extrusion width = 0.45mm
; perimeters extrusion width = 0.45mm
; infill extrusion width = 0.45mm
; solid infill extrusion width = 0.45mm
; top infill extrusion width = 0.40mm
; first layer extrusion width = 0.42mm

M201 X500 Y500 Z100 E5000 ; sets maximum accelerations, mm/sec^2
M203 X500 Y500 Z10 E60 ; sets maximum feedrates, mm/sec
M204 P500 R1000 T500 ; sets acceleration (P, T) and retract acceleration (R), mm/sec^2
M205 X8.00 Y8.00 Z0.40 E5.00 ; sets the jerk limits, mm/sec
M205 S0 T0 ; sets the minimum extruding and travel feed rate, mm/sec
M107
G90 ; use absolute coordinates
M83 ; extruder relative mode
M104 S200 ; set extruder temp
M140 S70 ; set bed temp
M190 S70 ; wait for bed temp
M109 S200 ; wait for extruder temp
G28 ; home all
M420 S1
G1 Z2 F240
G1 X2 Y10 F3000
G1 Z0.28 F240
G92 E0.0
G1 Y190 E15.0 F1500.0 ; intro line
G1 X2.3 F5000
G1 Y10 E30 F1200.0 ; intro line
G92 E0.0
G21 ; set units to millimeters
G90 ; use absolute coordinates
M83 ; use relative distances for extrusion
; Filament gcode
;BEFORE_LAYER_CHANGE
;0.2


G1 E-2.50000 F3600.00000
G1 Z0.200 F9000.000
;AFTER_LAYER_CHANGE
;0.2
G1 Z0.400
G1 X50.342 Y67.182
G1 Z0.200
G1 E2.50000 F2400.00000
G1 F1200.000
G1 X51.031 Y66.672 E0.02687
G1 X51.844 Y66.269 E0.02846
G1 X52.697 Y66.023 E0.02783
G1 X53.595 Y65.931 E0.02829
G1 X186.370 Y65.931 E4.16307
G1 X187.130 Y65.992 E0.02391
G1 X187.908 Y66.180 E0.02508
G1 X188.641 Y66.487 E0.02493
G1 X189.321 Y66.909 E0.02509
G1 X189.904 Y67.414 E0.02417
G1 X190.400 Y67.999 E0.02408
G1 X190.816 Y68.683 E0.02508
G1 X191.109 Y69.397 E0.02422
G1 X191.307 Y70.275 E0.02820
G1 X193.702 Y88.676 E0.58184
G1 X193.707 Y184.964 E3.01903
G1 X193.579 Y186.021 E0.03338
G1 X193.246 Y186.997 E0.03235
G1 X192.714 Y187.891 E0.03259
G1 X192.015 Y188.649 E0.03234
G1 X191.481 Y189.060 E0.02112
G1 X190.817 Y189.433 E0.02388
G1 X190.147 Y189.689 E0.02249
G1 X189.448 Y189.845 E0.02245
G1 X157.715 Y193.996 E1.00347
G1 X82.513 Y194.003 E2.35789
G1 X50.500 Y189.837 E1.01220
G1 X49.643 Y189.620 E0.02774
G1 X48.880 Y189.279 E0.02619
G1 X48.155 Y188.792 E0.02739
G1 X47.547 Y188.212 E0.02636
G1 X47.009 Y187.479 E0.02850
G1 X46.630 Y186.703 E0.02708
G1 X46.380 Y185.826 E0.02860
G1 X46.294 Y184.970 E0.02697
G1 X46.294 Y88.790 E3.01567
G1 X48.733 Y70.019 E0.59349
G1 X48.944 Y69.240 E0.02531
G1 X49.291 Y68.481 E0.02616
G1 X49.758 Y67.793 E0.02608
G1 X50.301 Y67.225 E0.02463
G1 E-1.75000 F3600.00000
G1 F7200.000
G1 X51.031 Y66.672 E-0.43512
G1 X51.554 Y66.413 E-0.27738
G1 E-0.03750 F3600.00000
G1 Z0.400 F9000.000
G1 X189.434 Y183.040
G1 Z0.200
G1 E2.50000 F2400.00000
G1 F1200.000
G1 X189.065 Y180.223 E0.08909
G1 X179.346 Y181.498 E0.30733
G1 X179.947 Y186.099 E0.14550
G1 X179.948 Y186.401 E0.00945
G1 X179.893 Y186.712 E0.00992
G1 X179.812 Y186.938 E0.00753
G1 X179.694 Y187.158 E0.00783
G1 X179.546 Y187.357 E0.00777
G1 X179.370 Y187.530 E0.00773
G1 X179.176 Y187.673 E0.00755
G1 X178.970 Y187.782 E0.00731
G1 X178.746 Y187.863 E0.00748
G1 X178.514 Y187.910 E0.00740
G1 X178.196 Y187.920 E0.00998
G1 X177.854 Y187.865 E0.01086
G1 X177.570 Y187.758 E0.00951
G1 X177.270 Y187.570 E0.01110
G1 X177.054 Y187.365 E0.00935
G1 X176.858 Y187.087 E0.01066
G1 X176.731 Y186.807 E0.00963
G1 X176.651 Y186.470 E0.01086
G1 X176.641 Y186.167 E0.00950
G1 X176.700 Y185.818 E0.01112
G1 X176.807 Y185.539 E0.00934
G1 X176.988 Y185.252 E0.01066
G1 X177.199 Y185.028 E0.00964
G1 X177.480 Y184.825 E0.01087
G1 X177.755 Y184.700 E0.00949
G1 X179.025 Y184.409 E0.04085
G1 X178.655 Y181.588 E0.08919
G1 X168.935 Y182.863 E0.30736
G1 X169.535 Y187.449 E0.14502
G1 X169.537 Y187.769 E0.01002
G1 X169.482 Y188.079 E0.00987
G1 X169.402 Y188.305 E0.00752
G1 X169.284 Y188.525 E0.00782
G1 X169.135 Y188.725 E0.00783
G1 X168.972 Y188.887 E0.00720
G1 X168.764 Y189.040 E0.00810
G1 X168.560 Y189.149 E0.00725
G1 X168.335 Y189.230 E0.00749
G1 X168.104 Y189.277 E0.00740
G1 X167.786 Y189.287 E0.00998
G1 X167.444 Y189.232 E0.01087
G1 X167.299 Y189.186 E0.00478
G1 X167.160 Y189.125 E0.00473
G1 X166.860 Y188.936 E0.01112
G1 X166.742 Y188.836 E0.00485
G1 X166.643 Y188.732 E0.00450
G1 X166.447 Y188.454 E0.01066
G1 X166.321 Y188.174 E0.00964
G1 X166.241 Y187.837 E0.01087
G1 X166.231 Y187.534 E0.00949
G1 X166.287 Y187.203 E0.01052
G1 X166.399 Y186.901 E0.01012
G1 X166.555 Y186.646 E0.00937
G1 X166.790 Y186.393 E0.01082
G1 X167.069 Y186.191 E0.01081
G1 X167.345 Y186.067 E0.00949
G1 X168.615 Y185.775 E0.04084
G1 X168.245 Y182.954 E0.08922
G1 X158.515 Y184.229 E0.30767
G1 X159.118 Y188.850 E0.14610
G1 X159.116 Y189.163 E0.00983
G1 X159.044 Y189.507 E0.01100
G1 X158.956 Y189.727 E0.00742
G1 X158.824 Y189.950 E0.00815
G1 X158.636 Y190.175 E0.00918
G1 X158.445 Y190.338 E0.00788
G1 X158.236 Y190.468 E0.00771
G1 X157.981 Y190.576 E0.00869
G1 X157.732 Y190.637 E0.00803
G1 X157.514 Y190.657 E0.00688
G1 X157.176 Y190.631 E0.01062
G1 X156.881 Y190.550 E0.00961
G1 X156.577 Y190.401 E0.01061
G1 X156.348 Y190.226 E0.00903
G1 X156.127 Y189.976 E0.01045
G1 X155.970 Y189.712 E0.00962
G1 X155.864 Y189.419 E0.00978
G1 X155.814 Y189.113 E0.00972
G1 X155.821 Y188.808 E0.00956
G1 X155.890 Y188.484 E0.01040
G1 X156.004 Y188.219 E0.00904
G1 X156.197 Y187.937 E0.01072
G1 X156.417 Y187.719 E0.00971
G1 X156.674 Y187.546 E0.00972
G1 X156.958 Y187.424 E0.00969
G1 X158.195 Y187.146 E0.03976
G1 X157.824 Y184.320 E0.08936
G1 X142.906 Y186.279 E0.47175
G1 X142.422 Y186.364 E0.01543
G1 X141.972 Y186.483 E0.01460
G1 X141.564 Y186.628 E0.01355
G1 X141.160 Y186.814 E0.01397
G1 X140.735 Y187.069 E0.01553
G1 X140.441 Y187.294 E0.01161
G1 X140.146 Y187.575 E0.01278
G1 X139.774 Y188.065 E0.01927
G1 X139.644 Y188.197 E0.00582
G1 X139.479 Y188.326 E0.00658
G1 X139.231 Y188.471 E0.00899
G1 X138.915 Y188.603 E0.01074
G1 X138.597 Y188.693 E0.01034
G1 X138.255 Y188.750 E0.01088
G1 X137.837 Y188.774 E0.01312
G1 X102.156 Y188.774 E1.11876
G1 X101.835 Y188.760 E0.01008
G1 X101.517 Y188.716 E0.01005
G1 X101.196 Y188.639 E0.01036
G1 X100.880 Y188.523 E0.01055
G1 X100.675 Y188.422 E0.00718
G1 X100.488 Y188.304 E0.00692
G1 X100.332 Y188.176 E0.00631
G1 X100.203 Y188.038 E0.00595
G1 X99.894 Y187.619 E0.01631
G1 X99.592 Y187.322 E0.01327
G1 X99.304 Y187.096 E0.01147
G1 X98.875 Y186.833 E0.01580
G1 X98.465 Y186.640 E0.01420
G1 X98.078 Y186.498 E0.01294
G1 X97.594 Y186.367 E0.01570
G1 X97.094 Y186.279 E0.01593
G1 X82.176 Y184.320 E0.47177
G1 X81.800 Y187.180 E0.09044
G1 X82.922 Y187.388 E0.03576
G1 X83.061 Y187.429 E0.00456
G1 X83.355 Y187.563 E0.01011
G1 X83.623 Y187.753 E0.01031
G1 X83.825 Y187.963 E0.00913
G1 X84.004 Y188.237 E0.01026
G1 X84.117 Y188.514 E0.00939
G1 X84.178 Y188.797 E0.00906
G1 X84.186 Y189.116 E0.01001
G1 X84.140 Y189.404 E0.00916
G1 X84.036 Y189.700 E0.00982
G1 X83.880 Y189.966 E0.00966
G1 X83.657 Y190.221 E0.01062
G1 X83.429 Y190.397 E0.00902
G1 X83.131 Y190.546 E0.01046
G1 X82.836 Y190.629 E0.00962
G1 X82.516 Y190.658 E0.01006
G1 X82.280 Y190.639 E0.00742
G1 X82.030 Y190.579 E0.00806
G1 X81.752 Y190.462 E0.00946
G1 X81.562 Y190.344 E0.00702
G1 X81.372 Y190.183 E0.00780
G1 X81.184 Y189.962 E0.00910
G1 X81.050 Y189.739 E0.00815
G1 X80.961 Y189.521 E0.00741
G1 X80.885 Y189.174 E0.01112
G1 X80.883 Y188.837 E0.01058
G1 X81.485 Y184.229 E0.14569
G1 X71.755 Y182.954 E0.30767
G1 X71.380 Y185.813 E0.09042
G1 X72.501 Y186.021 E0.03575
G1 X72.641 Y186.062 E0.00456
G1 X72.935 Y186.196 E0.01012
G1 X73.203 Y186.386 E0.01030
G1 X73.404 Y186.596 E0.00913
G1 X73.583 Y186.870 E0.01027
G1 X73.697 Y187.147 E0.00939
G1 X73.758 Y187.430 E0.00906
G1 X73.766 Y187.749 E0.01001
G1 X73.720 Y188.037 E0.00916
G1 X73.615 Y188.333 E0.00983
G1 X73.460 Y188.599 E0.00967
G1 X73.237 Y188.854 E0.01061
G1 X73.008 Y189.031 E0.00909
G1 X72.725 Y189.173 E0.00991
G1 X72.412 Y189.263 E0.01022
G1 X72.112 Y189.291 E0.00945
G1 X71.856 Y189.272 E0.00805
G1 X71.616 Y189.216 E0.00772
G1 X71.401 Y189.130 E0.00727
G1 X71.135 Y188.971 E0.00970
G1 X70.952 Y188.816 E0.00753
G1 X70.764 Y188.595 E0.00909
G1 X70.630 Y188.372 E0.00815
G1 X70.541 Y188.154 E0.00741
G1 X70.465 Y187.807 E0.01111
G1 X70.463 Y187.470 E0.01058
G1 X71.064 Y182.863 E0.14568
G1 X61.345 Y181.588 E0.30736
G1 X60.974 Y184.415 E0.08939
G1 X62.203 Y184.688 E0.03946
G1 X62.483 Y184.806 E0.00953
G1 X62.742 Y184.977 E0.00973
G1 X62.965 Y185.194 E0.00976
G1 X63.143 Y185.448 E0.00972
G1 X63.267 Y185.721 E0.00940
G1 X63.346 Y186.040 E0.01030
G1 X63.361 Y186.185 E0.00457
G1 X63.360 Y186.335 E0.00471
G1 X63.312 Y186.666 E0.01048
G1 X63.227 Y186.918 E0.00833
G1 X63.085 Y187.181 E0.00939
G1 X62.892 Y187.422 E0.00968
G1 X62.666 Y187.615 E0.00932
G1 X62.414 Y187.764 E0.00918
G1 X62.127 Y187.869 E0.00958
G1 X61.813 Y187.921 E0.00998
G1 X61.564 Y187.918 E0.00780
G1 X61.260 Y187.864 E0.00967
G1 X61.029 Y187.781 E0.00770
G1 X60.786 Y187.647 E0.00870
G1 X60.585 Y187.490 E0.00802
G1 X60.391 Y187.278 E0.00899
G1 X60.250 Y187.063 E0.00808
G1 X60.137 Y186.812 E0.00861
G1 X60.063 Y186.508 E0.00983
G1 X60.050 Y186.162 E0.01086
G1 X60.653 Y181.498 E0.14745
G1 X50.935 Y180.223 E0.30729
G1 X50.563 Y183.062 E0.08978
G1 X51.737 Y183.301 E0.03757
G1 X51.964 Y183.383 E0.00756
G1 X52.183 Y183.500 E0.00778
G1 X52.371 Y183.638 E0.00731
G1 X52.553 Y183.819 E0.00805
G1 X52.675 Y183.980 E0.00634
G1 X52.791 Y184.186 E0.00739
G1 X52.882 Y184.418 E0.00782
G1 X52.951 Y184.808 E0.01242
G1 X52.950 Y185.001 E0.00605
G1 X52.887 Y185.363 E0.01154
G1 X52.820 Y185.550 E0.00621
G1 X52.715 Y185.755 E0.00724
G1 X52.609 Y185.911 E0.00591
G1 X52.441 Y186.096 E0.00783
G1 X52.258 Y186.248 E0.00747
G1 X52.059 Y186.370 E0.00732
G1 X51.836 Y186.466 E0.00760
G1 X51.597 Y186.529 E0.00776
G1 X51.348 Y186.556 E0.00783
G1 X51.098 Y186.545 E0.00785
G1 X50.872 Y186.502 E0.00723
G1 X50.626 Y186.416 E0.00817
G1 X50.417 Y186.306 E0.00741
G1 X50.228 Y186.168 E0.00733
G1 X50.054 Y185.999 E0.00761
G1 X49.904 Y185.802 E0.00775
G1 X49.784 Y185.582 E0.00788
G1 X49.701 Y185.358 E0.00747
G1 X49.657 Y185.159 E0.00641
G1 X49.637 Y184.925 E0.00734
G1 X49.653 Y184.649 E0.00869
G1 X52.028 Y166.595 E0.57094
G1 X52.108 Y166.326 E0.00880
G1 X52.212 Y166.109 E0.00752
G1 X52.351 Y165.903 E0.00780
G1 X52.520 Y165.721 E0.00778
G1 X52.728 Y165.556 E0.00833
G1 X52.924 Y165.442 E0.00712
G1 X53.165 Y165.348 E0.00812
G1 X53.399 Y165.293 E0.00753
G1 X53.568 Y165.276 E0.00533
G1 X53.936 Y165.298 E0.01157
G1 X54.287 Y165.400 E0.01146
G1 X54.564 Y165.548 E0.00983
G1 X54.847 Y165.783 E0.01155
G1 X55.064 Y166.063 E0.01110
G1 X55.218 Y166.390 E0.01132
G1 X55.300 Y166.754 E0.01171
G1 X55.309 Y166.923 E0.00531
G1 X55.276 Y167.257 E0.01051
G1 X55.210 Y167.494 E0.00772
G1 X55.087 Y167.758 E0.00914
G1 X54.903 Y168.018 E0.00999
G1 X54.757 Y168.168 E0.00654
G1 X54.605 Y168.289 E0.00608
G1 X54.439 Y168.392 E0.00614
G1 X54.227 Y168.487 E0.00728
G1 X53.849 Y168.579 E0.01221
G1 X53.623 Y168.591 E0.00708
G1 X52.472 Y168.508 E0.03621
G1 X52.096 Y171.370 E0.09050
G1 X61.815 Y172.644 E0.30733
G1 X62.419 Y168.053 E0.14521
G1 X62.496 Y167.753 E0.00971
G1 X62.606 Y167.505 E0.00848
G1 X62.730 Y167.311 E0.00723
G1 X62.884 Y167.133 E0.00738
G1 X63.077 Y166.966 E0.00800
G1 X63.247 Y166.856 E0.00635
G1 X63.457 Y166.756 E0.00728
G1 X63.686 Y166.686 E0.00752
G1 X63.917 Y166.649 E0.00733
G1 X64.169 Y166.646 E0.00789
G1 X64.346 Y166.667 E0.00559
G1 X64.492 Y166.700 E0.00473
G1 X64.814 Y166.827 E0.01083
G1 X65.103 Y167.012 E0.01078
G1 X65.338 Y167.243 E0.01032
G1 X65.443 Y167.386 E0.00556
G1 X65.516 Y167.507 E0.00444
G1 X65.644 Y167.818 E0.01054
G1 X65.711 Y168.156 E0.01081
G1 X65.708 Y168.487 E0.01035
G1 X65.638 Y168.812 E0.01043
G1 X65.513 Y169.100 E0.00985
G1 X65.306 Y169.394 E0.01127
G1 X65.091 Y169.599 E0.00932
G1 X64.799 Y169.782 E0.01081
G1 X64.477 Y169.905 E0.01081
G1 X64.178 Y169.955 E0.00950
G1 X62.876 Y169.909 E0.04084
G1 X62.506 Y172.735 E0.08937
G1 X72.225 Y174.010 E0.30736
G1 X72.829 Y169.419 E0.14516
G1 X72.906 Y169.119 E0.00971
G1 X73.016 Y168.872 E0.00849
G1 X73.140 Y168.678 E0.00723
G1 X73.297 Y168.495 E0.00755
G1 X73.449 Y168.361 E0.00634
G1 X73.662 Y168.220 E0.00801
G1 X73.867 Y168.123 E0.00711
G1 X74.096 Y168.052 E0.00753
G1 X74.327 Y168.016 E0.00731
G1 X74.578 Y168.013 E0.00789
G1 X74.756 Y168.033 E0.00560
G1 X74.903 Y168.067 E0.00473
G1 X75.224 Y168.194 E0.01084
G1 X75.513 Y168.379 E0.01077
G1 X75.748 Y168.610 E0.01032
G1 X75.853 Y168.752 E0.00555
G1 X75.926 Y168.874 E0.00445
G1 X76.054 Y169.185 E0.01054
G1 X76.122 Y169.523 E0.01081
G1 X76.119 Y169.853 E0.01035
G1 X76.048 Y170.178 E0.01043
G1 X75.923 Y170.466 E0.00984
G1 X75.716 Y170.761 E0.01128
G1 X75.615 Y170.868 E0.00461
G1 X75.501 Y170.966 E0.00471
G1 X75.208 Y171.150 E0.01087
G1 X74.921 Y171.261 E0.00962
G1 X74.582 Y171.322 E0.01081
G1 X74.436 Y171.326 E0.00457
G1 X73.291 Y171.240 E0.03600
G1 X72.916 Y174.100 E0.09045
G1 X82.646 Y175.376 E0.30768
G1 X83.250 Y170.786 E0.14516
G1 X83.327 Y170.484 E0.00977
G1 X83.429 Y170.251 E0.00798
G1 X83.555 Y170.052 E0.00739
G1 X83.686 Y169.894 E0.00644
G1 X83.862 Y169.734 E0.00746
G1 X84.070 Y169.594 E0.00785
G1 X84.289 Y169.489 E0.00760
G1 X84.516 Y169.419 E0.00747
G1 X84.749 Y169.382 E0.00738
G1 X84.965 Y169.379 E0.00677
G1 X85.295 Y169.429 E0.01047
G1 X85.621 Y169.546 E0.01084
G1 X85.754 Y169.618 E0.00475
G1 X85.880 Y169.704 E0.00481
G1 X86.141 Y169.945 E0.01113
G1 X86.241 Y170.071 E0.00506
G1 X86.327 Y170.206 E0.00500
G1 X86.461 Y170.501 E0.01018
G1 X86.538 Y170.841 E0.01092
G1 X86.543 Y171.176 E0.01050
G1 X86.482 Y171.499 E0.01031
G1 X86.346 Y171.827 E0.01112
G1 X86.180 Y172.076 E0.00938
G1 X85.942 Y172.313 E0.01054
G1 X85.656 Y172.505 E0.01081
G1 X85.519 Y172.570 E0.00475
G1 X85.360 Y172.624 E0.00528
G1 X85.002 Y172.689 E0.01138
G1 X84.857 Y172.693 E0.00457
G1 X83.712 Y172.607 E0.03601
G1 X83.337 Y175.467 E0.09044
G1 X96.856 Y177.240 E0.42751
G1 X97.297 Y177.266 E0.01385
G1 X97.660 Y177.244 E0.01143
G1 X98.023 Y177.185 E0.01152
G1 X98.653 Y176.983 E0.02073
G1 X99.225 Y176.665 E0.02052
G1 X100.073 Y176.020 E0.03342
G1 X100.275 Y175.895 E0.00745
G1 X100.602 Y175.769 E0.01099
G1 X100.929 Y175.721 E0.01035
G1 X139.058 Y175.720 E1.19550
G1 X139.395 Y175.768 E0.01070
G1 X139.674 Y175.870 E0.00931
G1 X139.919 Y176.014 E0.00888
G1 X140.795 Y176.678 E0.03448
G1 X141.342 Y176.980 E0.01960
G1 X141.969 Y177.183 E0.02066
G1 X142.333 Y177.243 E0.01159
G1 X142.712 Y177.266 E0.01190
G1 X143.145 Y177.240 E0.01359
G1 X156.663 Y175.467 E0.42749
G1 X156.288 Y172.605 E0.09051
G1 X155.151 Y172.693 E0.03576
G1 X155.008 Y172.689 E0.00451
G1 X154.672 Y172.631 E0.01067
G1 X154.385 Y172.523 E0.00963
G1 X154.107 Y172.352 E0.01024
G1 X153.866 Y172.130 E0.01026
G1 X153.672 Y171.862 E0.01036
G1 X153.542 Y171.573 E0.00996
G1 X153.467 Y171.241 E0.01066
G1 X153.457 Y170.934 E0.00964
G1 X153.512 Y170.592 E0.01087
G1 X153.619 Y170.308 E0.00950
G1 X153.807 Y170.008 E0.01111
G1 X154.012 Y169.792 E0.00935
G1 X154.290 Y169.596 E0.01065
G1 X154.570 Y169.469 E0.00964
G1 X154.898 Y169.391 E0.01059
G1 X155.120 Y169.377 E0.00695
G1 X155.363 Y169.396 E0.00766
G1 X155.594 Y169.449 E0.00741
G1 X155.827 Y169.540 E0.00786
G1 X156.023 Y169.651 E0.00707
G1 X156.220 Y169.804 E0.00781
G1 X156.393 Y169.984 E0.00783
G1 X156.530 Y170.181 E0.00751
G1 X156.666 Y170.469 E0.00999
G1 X156.750 Y170.785 E0.01025
G1 X157.354 Y175.376 E0.14521
G1 X167.084 Y174.100 E0.30768
G1 X166.708 Y171.238 E0.09053
G1 X165.571 Y171.326 E0.03575
G1 X165.428 Y171.322 E0.00451
G1 X165.093 Y171.265 E0.01066
G1 X164.805 Y171.156 E0.00964
G1 X164.510 Y170.974 E0.01087
G1 X164.394 Y170.876 E0.00476
G1 X164.289 Y170.767 E0.00474
G1 X164.084 Y170.478 E0.01113
G1 X163.962 Y170.206 E0.00933
G1 X163.887 Y169.874 E0.01067
G1 X163.877 Y169.567 E0.00964
G1 X163.932 Y169.225 E0.01087
G1 X164.039 Y168.942 E0.00950
G1 X164.228 Y168.641 E0.01111
G1 X164.432 Y168.425 E0.00934
G1 X164.710 Y168.229 E0.01067
G1 X164.990 Y168.102 E0.00964
G1 X165.319 Y168.024 E0.01058
G1 X165.540 Y168.010 E0.00695
G1 X165.783 Y168.029 E0.00765
G1 X166.014 Y168.082 E0.00742
G1 X166.248 Y168.173 E0.00788
G1 X166.444 Y168.284 E0.00706
G1 X166.640 Y168.437 E0.00780
G1 X166.813 Y168.617 E0.00783
G1 X166.950 Y168.814 E0.00752
