; generated by PrusaSlicer 2.2.0+ on 2020-05-23 at 06:38:42 UTC

; 

; external perimeters extrusion width = 0.45mm
; perimeters extrusion width = 0.45mm
; infill extrusion width = 0.45mm
; solid infill extrusion width = 0.45mm
; top infill extrusion width = 0.40mm
; first layer extrusion width = 0.42mm

M201 X500 Y500 Z100 E5000 ; sets maximum accelerations, mm/sec^2
M203 X500 Y500 Z10 E60 ; sets maximum feedrates, mm/sec
M204 P500 R1000 T500 ; sets acceleration (P, T) and retract acceleration (R), mm/sec^2
M205 X8.00 Y8.00 Z0.40 E5.00 ; sets the jerk limits, mm/sec
M205 S0 T0 ; sets the minimum extruding and travel feed rate, mm/sec
M107
G90 ; use absolute coordinates
M83 ; extruder relative mode
M104 S200 ; set extruder temp
M140 S70 ; set bed temp
M190 S70 ; wait for bed temp
M109 S200 ; wait for extruder temp
G28 ; home all
M420 S1
G1 Z2 F240
G1 X2 Y10 F3000
G1 Z0.28 F240
G92 E0.0
G1 Y190 E15.0 F1500.0 ; intro line
G1 X2.3 F5000
G1 Y10 E30 F1200.0 ; intro line
G92 E0.0
G21 ; set units to millimeters
G90 ; use absolute coordinates
M83 ; use relative distances for extrusion
; Filament gcode
;BEFORE_LAYER_CHANGE
;0.2


G1 E-2.50000 F3600.00000
G1 Z0.200 F9000.000
;AFTER_LAYER_CHANGE
;0.2
G1 Z0.400
G1 X52.347 Y2.137
G1 Z0.200
G1 E2.50000 F2400.00000
G1 F1200.000
G1 X53.576 Y1.965 E0.03889
G1 X186.370 Y1.964 E4.16367
G1 X187.130 Y2.025 E0.02391
G1 X187.908 Y2.213 E0.02508
G1 X188.641 Y2.520 E0.02493
G1 X189.321 Y2.942 E0.02509
G1 X189.904 Y3.447 E0.02417
G1 X190.400 Y4.033 E0.02408
G1 X190.816 Y4.716 E0.02508
G1 X191.109 Y5.431 E0.02422
G1 X191.307 Y6.308 E0.02820
G1 X193.705 Y24.796 E0.58454
G1 X193.707 Y216.971 E6.02550
G1 X193.505 Y218.341 E0.04343
G1 X192.932 Y219.607 E0.04356
G1 X192.289 Y220.421 E0.03251
G1 X191.508 Y221.075 E0.03195
G1 X190.582 Y221.568 E0.03290
G1 X189.603 Y221.853 E0.03195
G1 X157.526 Y226.035 E1.01428
G1 X82.317 Y226.031 E2.35813
G1 X50.598 Y221.885 E1.00298
G1 X49.603 Y221.639 E0.03214
G1 X48.640 Y221.171 E0.03358
G1 X47.679 Y220.389 E0.03885
G1 X46.944 Y219.399 E0.03867
G1 X46.462 Y218.221 E0.03989
G1 X46.293 Y216.999 E0.03868
G1 X46.293 Y24.917 E6.02261
G1 X48.704 Y6.224 E0.59097
G1 X48.968 Y5.208 E0.03289
G1 X49.421 Y4.296 E0.03193
G1 X50.199 Y3.346 E0.03851
G1 X51.187 Y2.613 E0.03858
G1 X52.292 Y2.160 E0.03744
G1 E-1.75000 F3600.00000
G1 F7200.000
G1 X53.576 Y1.965 E-0.61680
G1 X53.777 Y1.965 E-0.09570
G1 E-0.03750 F3600.00000
G1 Z0.400 F9000.000
G1 X189.434 Y119.073
G1 Z0.200
G1 E2.50000 F2400.00000
G1 F1200.000
G1 X189.065 Y116.256 E0.08909
G1 X179.346 Y117.531 E0.30733
G1 X179.947 Y122.132 E0.14550
G1 X179.948 Y122.434 E0.00945
G1 X179.893 Y122.745 E0.00992
G1 X179.812 Y122.972 E0.00753
G1 X179.694 Y123.192 E0.00783
G1 X179.546 Y123.390 E0.00777
G1 X179.370 Y123.564 E0.00773
G1 X179.176 Y123.706 E0.00755
G1 X178.970 Y123.815 E0.00731
G1 X178.746 Y123.896 E0.00748
G1 X178.514 Y123.943 E0.00740
G1 X178.196 Y123.954 E0.00998
G1 X177.854 Y123.899 E0.01086
G1 X177.570 Y123.791 E0.00951
G1 X177.270 Y123.603 E0.01110
G1 X177.054 Y123.398 E0.00935
G1 X176.858 Y123.120 E0.01066
G1 X176.731 Y122.841 E0.00963
G1 X176.651 Y122.503 E0.01086
G1 X176.641 Y122.201 E0.00950
G1 X176.700 Y121.851 E0.01112
G1 X176.807 Y121.573 E0.00934
G1 X176.988 Y121.285 E0.01066
G1 X177.199 Y121.061 E0.00964
G1 X177.480 Y120.858 E0.01087
G1 X177.755 Y120.733 E0.00949
G1 X179.025 Y120.442 E0.04085
G1 X178.655 Y117.622 E0.08919
G1 X168.935 Y118.896 E0.30736
G1 X169.535 Y123.482 E0.14502
G1 X169.537 Y123.802 E0.01002
G1 X169.482 Y124.112 E0.00987
G1 X169.402 Y124.338 E0.00752
G1 X169.284 Y124.558 E0.00782
G1 X169.135 Y124.758 E0.00783
G1 X168.972 Y124.920 E0.00720
G1 X168.764 Y125.074 E0.00810
G1 X168.560 Y125.182 E0.00725
G1 X168.335 Y125.263 E0.00749
G1 X168.104 Y125.310 E0.00740
G1 X167.786 Y125.320 E0.00998
G1 X167.444 Y125.265 E0.01087
G1 X167.299 Y125.219 E0.00478
G1 X167.160 Y125.158 E0.00473
G1 X166.860 Y124.970 E0.01112
G1 X166.742 Y124.869 E0.00485
G1 X166.643 Y124.765 E0.00450
G1 X166.447 Y124.487 E0.01066
G1 X166.321 Y124.207 E0.00964
G1 X166.241 Y123.870 E0.01087
G1 X166.231 Y123.567 E0.00949
G1 X166.287 Y123.237 E0.01052
G1 X166.399 Y122.934 E0.01012
G1 X166.555 Y122.679 E0.00937
G1 X166.790 Y122.426 E0.01082
G1 X167.069 Y122.224 E0.01081
G1 X167.345 Y122.100 E0.00949
G1 X168.615 Y121.808 E0.04084
G1 X168.245 Y118.987 E0.08922
G1 X158.515 Y120.263 E0.30767
G1 X159.118 Y124.883 E0.14610
G1 X159.116 Y125.197 E0.00983
G1 X159.044 Y125.540 E0.01100
G1 X158.956 Y125.760 E0.00742
G1 X158.824 Y125.984 E0.00815
G1 X158.636 Y126.208 E0.00918
G1 X158.445 Y126.372 E0.00788
G1 X158.236 Y126.501 E0.00771
G1 X157.981 Y126.609 E0.00869
G1 X157.732 Y126.670 E0.00803
G1 X157.514 Y126.690 E0.00688
G1 X157.176 Y126.664 E0.01062
G1 X156.881 Y126.583 E0.00961
G1 X156.577 Y126.434 E0.01061
G1 X156.348 Y126.259 E0.00903
G1 X156.127 Y126.009 E0.01045
G1 X155.970 Y125.746 E0.00962
G1 X155.864 Y125.453 E0.00978
G1 X155.814 Y125.147 E0.00972
G1 X155.821 Y124.842 E0.00956
G1 X155.890 Y124.517 E0.01040
G1 X156.004 Y124.252 E0.00904
G1 X156.197 Y123.970 E0.01072
G1 X156.417 Y123.753 E0.00971
G1 X156.674 Y123.580 E0.00972
G1 X156.958 Y123.458 E0.00969
G1 X158.195 Y123.179 E0.03976
G1 X157.824 Y120.353 E0.08936
G1 X142.906 Y122.312 E0.47175
G1 X142.422 Y122.397 E0.01543
G1 X141.972 Y122.516 E0.01460
G1 X141.564 Y122.661 E0.01355
G1 X141.160 Y122.848 E0.01397
G1 X140.735 Y123.102 E0.01553
G1 X140.441 Y123.327 E0.01161
G1 X140.146 Y123.608 E0.01278
G1 X139.774 Y124.098 E0.01927
G1 X139.644 Y124.231 E0.00582
G1 X139.479 Y124.359 E0.00658
G1 X139.231 Y124.504 E0.00899
G1 X138.915 Y124.636 E0.01074
G1 X138.597 Y124.726 E0.01034
G1 X138.255 Y124.783 E0.01088
G1 X137.837 Y124.807 E0.01312
G1 X102.156 Y124.807 E1.11876
G1 X101.835 Y124.793 E0.01008
G1 X101.517 Y124.749 E0.01005
G1 X101.196 Y124.672 E0.01036
G1 X100.880 Y124.556 E0.01055
G1 X100.675 Y124.455 E0.00718
G1 X100.488 Y124.337 E0.00692
G1 X100.332 Y124.210 E0.00631
G1 X100.203 Y124.071 E0.00595
G1 X99.894 Y123.653 E0.01631
G1 X99.592 Y123.355 E0.01327
G1 X99.304 Y123.130 E0.01147
G1 X98.875 Y122.866 E0.01580
G1 X98.465 Y122.673 E0.01420
G1 X98.078 Y122.531 E0.01294
G1 X97.594 Y122.400 E0.01570
G1 X97.094 Y122.312 E0.01593
G1 X82.176 Y120.353 E0.47177
G1 X81.800 Y123.213 E0.09044
G1 X82.922 Y123.421 E0.03576
G1 X83.061 Y123.462 E0.00456
G1 X83.355 Y123.596 E0.01011
G1 X83.623 Y123.786 E0.01031
G1 X83.825 Y123.996 E0.00913
G1 X84.004 Y124.270 E0.01026
G1 X84.117 Y124.547 E0.00939
G1 X84.178 Y124.830 E0.00906
G1 X84.186 Y125.149 E0.01001
G1 X84.140 Y125.438 E0.00916
G1 X84.036 Y125.733 E0.00982
G1 X83.880 Y125.999 E0.00966
G1 X83.657 Y126.254 E0.01062
G1 X83.429 Y126.430 E0.00902
G1 X83.131 Y126.579 E0.01046
G1 X82.836 Y126.662 E0.00962
G1 X82.516 Y126.691 E0.01006
G1 X82.280 Y126.672 E0.00742
G1 X82.030 Y126.613 E0.00806
G1 X81.752 Y126.495 E0.00946
G1 X81.562 Y126.377 E0.00702
G1 X81.372 Y126.216 E0.00780
G1 X81.184 Y125.995 E0.00910
G1 X81.050 Y125.772 E0.00815
G1 X80.961 Y125.554 E0.00741
G1 X80.885 Y125.207 E0.01112
G1 X80.883 Y124.870 E0.01058
G1 X81.485 Y120.263 E0.14569
G1 X71.755 Y118.987 E0.30767
G1 X71.380 Y121.846 E0.09042
G1 X72.501 Y122.054 E0.03575
G1 X72.641 Y122.095 E0.00456
G1 X72.935 Y122.229 E0.01012
G1 X73.203 Y122.419 E0.01030
G1 X73.404 Y122.629 E0.00913
G1 X73.583 Y122.903 E0.01027
G1 X73.697 Y123.181 E0.00939
G1 X73.758 Y123.463 E0.00906
G1 X73.766 Y123.782 E0.01001
G1 X73.720 Y124.071 E0.00916
G1 X73.615 Y124.366 E0.00983
G1 X73.460 Y124.632 E0.00967
G1 X73.237 Y124.887 E0.01061
G1 X73.008 Y125.064 E0.00909
G1 X72.725 Y125.206 E0.00991
G1 X72.412 Y125.296 E0.01022
G1 X72.112 Y125.324 E0.00945
G1 X71.856 Y125.305 E0.00805
G1 X71.616 Y125.249 E0.00772
G1 X71.401 Y125.163 E0.00727
G1 X71.135 Y125.005 E0.00970
G1 X70.952 Y124.849 E0.00753
G1 X70.764 Y124.628 E0.00909
G1 X70.630 Y124.406 E0.00815
G1 X70.541 Y124.187 E0.00741
G1 X70.465 Y123.841 E0.01111
G1 X70.463 Y123.503 E0.01058
G1 X71.064 Y118.896 E0.14568
G1 X61.345 Y117.622 E0.30736
G1 X60.974 Y120.448 E0.08939
G1 X62.203 Y120.721 E0.03946
G1 X62.483 Y120.839 E0.00953
G1 X62.742 Y121.010 E0.00973
G1 X62.965 Y121.227 E0.00976
G1 X63.143 Y121.481 E0.00972
G1 X63.267 Y121.754 E0.00940
G1 X63.346 Y122.073 E0.01030
G1 X63.361 Y122.218 E0.00457
G1 X63.360 Y122.368 E0.00471
G1 X63.312 Y122.699 E0.01048
G1 X63.227 Y122.951 E0.00833
G1 X63.085 Y123.214 E0.00939
G1 X62.892 Y123.455 E0.00968
G1 X62.666 Y123.649 E0.00932
G1 X62.414 Y123.797 E0.00918
G1 X62.127 Y123.902 E0.00958
G1 X61.813 Y123.954 E0.00998
G1 X61.564 Y123.952 E0.00780
G1 X61.260 Y123.897 E0.00967
G1 X61.029 Y123.814 E0.00770
G1 X60.786 Y123.680 E0.00870
G1 X60.585 Y123.523 E0.00802
G1 X60.391 Y123.312 E0.00899
G1 X60.250 Y123.096 E0.00808
G1 X60.137 Y122.845 E0.00861
G1 X60.063 Y122.541 E0.00983
G1 X60.050 Y122.195 E0.01086
G1 X60.653 Y117.531 E0.14745
G1 X50.935 Y116.256 E0.30729
G1 X50.563 Y119.095 E0.08978
G1 X51.737 Y119.335 E0.03757
G1 X51.964 Y119.416 E0.00756
G1 X52.183 Y119.533 E0.00778
G1 X52.371 Y119.671 E0.00731
G1 X52.553 Y119.853 E0.00805
G1 X52.675 Y120.014 E0.00634
G1 X52.791 Y120.219 E0.00739
G1 X52.882 Y120.451 E0.00782
G1 X52.951 Y120.841 E0.01242
G1 X52.950 Y121.034 E0.00605
G1 X52.887 Y121.397 E0.01154
G1 X52.820 Y121.583 E0.00621
G1 X52.715 Y121.788 E0.00724
G1 X52.609 Y121.944 E0.00591
G1 X52.441 Y122.130 E0.00783
G1 X52.258 Y122.282 E0.00747
G1 X52.059 Y122.404 E0.00732
G1 X51.836 Y122.499 E0.00760
G1 X51.597 Y122.562 E0.00776
G1 X51.348 Y122.589 E0.00783
G1 X51.098 Y122.579 E0.00785
G1 X50.872 Y122.535 E0.00723
G1 X50.626 Y122.449 E0.00817
G1 X50.417 Y122.339 E0.00741
G1 X50.228 Y122.201 E0.00733
G1 X50.054 Y122.032 E0.00761
G1 X49.904 Y121.835 E0.00775
G1 X49.784 Y121.615 E0.00788
G1 X49.701 Y121.391 E0.00747
G1 X49.657 Y121.192 E0.00641
G1 X49.637 Y120.959 E0.00734
G1 X49.653 Y120.682 E0.00869
G1 X52.028 Y102.628 E0.57094
G1 X52.108 Y102.359 E0.00880
G1 X52.212 Y102.143 E0.00752
G1 X52.351 Y101.937 E0.00780
G1 X52.520 Y101.754 E0.00778
G1 X52.728 Y101.589 E0.00833
G1 X52.924 Y101.476 E0.00712
G1 X53.165 Y101.381 E0.00812
G1 X53.399 Y101.326 E0.00753
G1 X53.568 Y101.309 E0.00533
G1 X53.936 Y101.332 E0.01157
G1 X54.287 Y101.434 E0.01146
G1 X54.564 Y101.581 E0.00983
G1 X54.847 Y101.816 E0.01155
G1 X55.064 Y102.096 E0.01110
G1 X55.218 Y102.423 E0.01132
G1 X55.300 Y102.787 E0.01171
G1 X55.309 Y102.956 E0.00531
G1 X55.276 Y103.290 E0.01051
G1 X55.210 Y103.527 E0.00772
G1 X55.087 Y103.791 E0.00914
G1 X54.903 Y104.052 E0.00999
G1 X54.757 Y104.201 E0.00654
G1 X54.605 Y104.322 E0.00608
G1 X54.439 Y104.425 E0.00614
G1 X54.227 Y104.521 E0.00728
G1 X53.849 Y104.612 E0.01221
G1 X53.623 Y104.624 E0.00708
G1 X52.472 Y104.542 E0.03621
G1 X52.096 Y107.403 E0.09050
G1 X61.815 Y108.678 E0.30733
G1 X62.419 Y104.086 E0.14521
G1 X62.496 Y103.786 E0.00971
G1 X62.606 Y103.539 E0.00848
G1 X62.730 Y103.344 E0.00723
G1 X62.884 Y103.166 E0.00738
G1 X63.077 Y102.999 E0.00800
G1 X63.247 Y102.889 E0.00635
G1 X63.457 Y102.790 E0.00728
G1 X63.686 Y102.719 E0.00752
G1 X63.917 Y102.682 E0.00733
G1 X64.169 Y102.679 E0.00789
G1 X64.346 Y102.700 E0.00559
G1 X64.492 Y102.733 E0.00473
G1 X64.814 Y102.860 E0.01083
G1 X65.103 Y103.046 E0.01078
G1 X65.338 Y103.276 E0.01032
G1 X65.443 Y103.419 E0.00556
G1 X65.516 Y103.541 E0.00444
G1 X65.644 Y103.852 E0.01054
G1 X65.711 Y104.190 E0.01081
G1 X65.708 Y104.520 E0.01035
G1 X65.638 Y104.845 E0.01043
G1 X65.513 Y105.133 E0.00985
G1 X65.306 Y105.427 E0.01127
G1 X65.091 Y105.632 E0.00932
G1 X64.799 Y105.816 E0.01081
G1 X64.477 Y105.939 E0.01081
G1 X64.178 Y105.988 E0.00950
G1 X62.876 Y105.942 E0.04084
G1 X62.506 Y108.768 E0.08937
G1 X72.225 Y110.043 E0.30736
G1 X72.829 Y105.453 E0.14516
G1 X72.906 Y105.153 E0.00971
G1 X73.016 Y104.905 E0.00849
G1 X73.140 Y104.711 E0.00723
G1 X73.297 Y104.528 E0.00755
G1 X73.449 Y104.394 E0.00634
G1 X73.662 Y104.253 E0.00801
G1 X73.867 Y104.156 E0.00711
G1 X74.096 Y104.085 E0.00753
G1 X74.327 Y104.049 E0.00731
G1 X74.578 Y104.046 E0.00789
G1 X74.756 Y104.067 E0.00560
G1 X74.903 Y104.100 E0.00473
G1 X75.224 Y104.227 E0.01084
G1 X75.513 Y104.412 E0.01077
G1 X75.748 Y104.643 E0.01032
G1 X75.853 Y104.785 E0.00555
G1 X75.926 Y104.907 E0.00445
G1 X76.054 Y105.218 E0.01054
G1 X76.122 Y105.556 E0.01081
G1 X76.119 Y105.886 E0.01035
G1 X76.048 Y106.212 E0.01043
G1 X75.923 Y106.499 E0.00984
G1 X75.716 Y106.794 E0.01128
G1 X75.615 Y106.901 E0.00461
G1 X75.501 Y106.999 E0.00471
G1 X75.208 Y107.183 E0.01087
G1 X74.921 Y107.294 E0.00962
G1 X74.582 Y107.355 E0.01081
G1 X74.436 Y107.359 E0.00457
G1 X73.291 Y107.273 E0.03600
G1 X72.916 Y110.134 E0.09045
G1 X82.646 Y111.409 E0.30768
G1 X83.250 Y106.819 E0.14516
G1 X83.327 Y106.517 E0.00977
G1 X83.429 Y106.284 E0.00798
G1 X83.555 Y106.085 E0.00739
G1 X83.686 Y105.927 E0.00644
G1 X83.862 Y105.767 E0.00746
G1 X84.070 Y105.627 E0.00785
G1 X84.289 Y105.523 E0.00760
G1 X84.516 Y105.452 E0.00747
G1 X84.749 Y105.416 E0.00738
G1 X84.965 Y105.412 E0.00677
G1 X85.295 Y105.462 E0.01047
G1 X85.621 Y105.579 E0.01084
G1 X85.754 Y105.651 E0.00475
G1 X85.880 Y105.738 E0.00481
G1 X86.141 Y105.979 E0.01113
G1 X86.241 Y106.105 E0.00506
G1 X86.327 Y106.239 E0.00500
G1 X86.461 Y106.535 E0.01018
G1 X86.538 Y106.875 E0.01092
G1 X86.543 Y107.210 E0.01050
G1 X86.482 Y107.533 E0.01031
G1 X86.346 Y107.860 E0.01112
G1 X86.180 Y108.109 E0.00938
G1 X85.942 Y108.346 E0.01054
G1 X85.656 Y108.538 E0.01081
G1 X85.519 Y108.603 E0.00475
G1 X85.360 Y108.657 E0.00528
G1 X85.002 Y108.722 E0.01138
G1 X84.857 Y108.726 E0.00457
G1 X83.712 Y108.640 E0.03601
G1 X83.337 Y111.500 E0.09044
G1 X96.856 Y113.273 E0.42751
G1 X97.297 Y113.299 E0.01385
G1 X97.660 Y113.277 E0.01143
G1 X98.023 Y113.218 E0.01152
G1 X98.653 Y113.016 E0.02073
G1 X99.225 Y112.698 E0.02052
G1 X100.073 Y112.053 E0.03342
G1 X100.275 Y111.928 E0.00745
G1 X100.602 Y111.802 E0.01099
G1 X100.929 Y111.754 E0.01035
G1 X139.058 Y111.754 E1.19550
G1 X139.395 Y111.801 E0.01070
G1 X139.674 Y111.903 E0.00931
G1 X139.919 Y112.047 E0.00888
G1 X140.795 Y112.711 E0.03448
G1 X141.342 Y113.014 E0.01960
G1 X141.969 Y113.216 E0.02066
G1 X142.333 Y113.277 E0.01159
G1 X142.712 Y113.299 E0.01190
G1 X143.145 Y113.273 E0.01359
G1 X156.663 Y111.500 E0.42749
G1 X156.288 Y108.638 E0.09051
G1 X155.151 Y108.726 E0.03576
G1 X155.008 Y108.722 E0.00451
G1 X154.672 Y108.665 E0.01067
G1 X154.385 Y108.556 E0.00963
G1 X154.107 Y108.385 E0.01024
G1 X153.866 Y108.164 E0.01026
G1 X153.672 Y107.896 E0.01036
G1 X153.542 Y107.606 E0.00996
G1 X153.467 Y107.275 E0.01066
G1 X153.457 Y106.967 E0.00964
G1 X153.512 Y106.625 E0.01087
G1 X153.619 Y106.342 E0.00950
G1 X153.807 Y106.041 E0.01111
G1 X154.012 Y105.825 E0.00935
G1 X154.290 Y105.629 E0.01065
G1 X154.570 Y105.502 E0.00964
G1 X154.898 Y105.424 E0.01059
G1 X155.120 Y105.410 E0.00695
G1 X155.363 Y105.429 E0.00766
G1 X155.594 Y105.482 E0.00741
G1 X155.827 Y105.573 E0.00786
G1 X156.023 Y105.684 E0.00707
G1 X156.220 Y105.837 E0.00781
G1 X156.393 Y106.018 E0.00783
G1 X156.530 Y106.214 E0.00751
G1 X156.666 Y106.502 E0.00999
G1 X156.750 Y106.818 E0.01025
G1 X157.354 Y111.409 E0.14521
G1 X167.084 Y110.134 E0.30768
G1 X166.708 Y107.271 E0.09053
G1 X165.571 Y107.359 E0.03575
G1 X165.428 Y107.356 E0.00451
G1 X165.093 Y107.298 E0.01066
G1 X164.805 Y107.189 E0.00964
G1 X164.510 Y107.008 E0.01087
G1 X164.394 Y106.909 E0.00476
G1 X164.289 Y106.800 E0.00474
G1 X164.084 Y106.511 E0.01113
G1 X163.962 Y106.239 E0.00933
G1 X163.887 Y105.908 E0.01067
G1 X163.877 Y105.600 E0.00964
G1 X163.932 Y105.258 E0.01087
G1 X164.039 Y104.975 E0.00950
G1 X164.228 Y104.674 E0.01111
G1 X164.432 Y104.458 E0.00934
G1 X164.710 Y104.262 E0.01067
G1 X164.990 Y104.135 E0.00964
G1 X165.319 Y104.057 E0.01058
G1 X165.540 Y104.043 E0.00695
G1 X165.783 Y104.062 E0.00765
G1 X166.014 Y104.115 E0.00742
G1 X166.248 Y104.206 E0.00788
G1 X166.444 Y104.317 E0.00706
G1 X166.640 Y104.470 E0.00780
G1 X166.813 Y104.651 E0.00783
G1 X166.950 Y104.847 E0.00752
G1 X167.087 Y105.135 E0.00999
G1 X167.170 Y105.451 E0.01026
G1 X167.775 Y110.043 E0.14522
G1 X177.494 Y108.768 E0.30737
G1 X177.119 Y105.905 E0.09056
G1 X175.982 Y105.993 E0.03575
G1 X175.838 Y105.989 E0.00451
